!!!!SEGMENT: pl-cz--ii-241--001_zeidler-jozef--missa-d-kyrie.krn
!!!cenid: 18xx:296
!!!COM: Zeidler, Józef
!!!COM-rismID: pe30003401
!!!CDT: ~1744-1806
!!!CNT: Polish
!!!OPR: Missa D
!!!OTL: Kyrie
!!!OMV: 001
!!!PDT: 1818
!!!AGN: Sacred; Mass
!!!SMS-siglum: PL-CZ
!!!SMS-shelfmark: II-241
!!!SMS-shelfwork: 001-001 M
!!!NIFC-rismSourceID:
!!!NIFC-islandoraID: pl-cz:33260
!!!URL-pdf-islandora: https://repozytorium.nifc.pl/islandora/object/pl-cz%3A33260/datastream/PDF/view
!!!URL-scan:
!!!ONB-nifc: UWAGA: części Mszy: Kyrie, Gloria, Patrem, Sanctus, Benedictus, Agnus dei. Dona nobis
!!!AIN: 1 alto 1 bass 2 empty 1 organ 1 tenor 2 violn 1 vox
!!!key:
**kern	**fb	**dynam	**kern	**dynam	**kern	**dynam	**kern	**text	**kern	**text	**kern	**text	**dynam	**kern	**text	**dynam	**kern	**kern	**dynam
*part9	*	*part9	*part8	*part8	*part7	*part7	*part6	*part6	*part5	*part5	*part4	*part4	*part4	*part3	*part3	*part3	*part2	*part1	*part1
*staff9	*	*	*staff8	*	*staff7	*	*staff6	*staff6	*staff5	*staff5	*staff4	*staff4	*	*staff3	*staff3	*	*staff2	*staff1	*
*Iorgan	*	*	*Ivioln	*	*Ivioln	*	*Ibass	*	*Itenor	*	*Ialto	*	*	*Ivox	*	*	*Iempty	*Iempty	*
*I"Organo	*	*	*I"Violino Secundo	*	*I"Violino Primo	*	*I"Basso	*	*I"Tenore	*	*I"Alto	*	*	*I"Canto	*	*	*I"Cornu Secundo in D	*I"Cornu Primo in D	*
*I'Org	*	*	*I'Vn II	*	*I'Vn I	*	*I'B	*	*I'T	*	*I'A	*	*	*I'C	*	*	*I'Cor II	*I'Cor I	*
*group4	*	*	*group3	*	*group3	*	*group2	*	*group2	*	*group2	*	*	*group2	*	*	*group1	*group1	*
*clefF4	*	*	*clefG2	*	*clefG2	*	*clefF4	*	*clefC4	*	*clefC3	*	*	*clefC1	*	*	*clefG2	*clefG2	*
*	*	*	*	*	*	*	*	*	*	*	*	*	*	*	*	*	*ITrd6c10	*ITrd6c10	*
*k[f#c#]	*	*	*k[f#c#]	*	*k[f#c#]	*	*k[f#c#]	*	*k[f#c#]	*	*k[f#c#]	*	*	*k[f#c#]	*	*	*k[f#c#]	*k[f#c#]	*
*D:	*	*	*D:	*	*D:	*	*D:	*	*D:	*	*D:	*	*	*D:	*	*	*D:	*D:	*
*M4/4	*	*	*M4/4	*	*M4/4	*	*M4/4	*	*M4/4	*	*M4/4	*	*	*M4/4	*	*	*M4/4	*M4/4	*
*met(c)	*	*	*met(c)	*	*met(c)	*	*met(c)	*	*met(c)	*	*met(c)	*	*	*met(c)	*	*	*met(c)	*met(c)	*
=1	=1	=1	=1	=1	=1	=1	=1	=1	=1	=1	=1	=1	=1	=1	=1	=1	=1	=1	=1
!LO:TX:a:t=problem:oznaczenie tempa "Allo"	!	!	!	!	!	!	!	!	!LO:TX:a:t=problem:znaki przykluczowe jeden pod drugim	!	!	!	!	!	!	!	!	!	!
!	!	!	!	!	!	!	!LO:TX:a:t=problem:oznaczenie tempa 'Allo'	!	!	!	!	!	!	!LO:TX:a:t=problem&colon;oznaczenie tempa "Allo"	!	!	!	!	!
!LO:TX:a:t=Tutti	!	!	!	!	!	!	!	!	!LO:TX:a:t=problem:oznaczenie tempa "Allo"	!	!	!	!	!	!	!	!	!	!
!LO:TX:a:t=problem:znaki przykluczowe jeden pod drugim	!	!	!	!	!LO:TX:a:t=problem:znaki przykluczowe jeden pod drugim	!	!LO:TX:a:t=Tutti	!	!LO:TX:a:t=Tutti	!	!	!	!	!	!	!LO:DY:a	!LO:TX:a:t=Allegro	!LO:TX:a:B:t=Allegro	!
*4\right	*	*	*	*	*	*	*4\right	*	*4\right	*	*4\right	*	*	*4\right	*	*	*4\right	*4\right	*
!	!	!LO:HP:t=for	!LO:TX:a:t=Allegro	!LO:HP:t=for	!LO:TX:a:t=Allegro	!LO:HP:t=for	!	!	!	!	!LO:TX:a:t=problem:brak oznaczenia tempa	!	!LO:HP:t=for	!	!	!	!	!	!LO:HP:t=for
4d\	.	f	4A/ 4f# 4dd	f	4A/ 4f# 4dd	f	4d\	Ky-	4f#\	Ky-	4a\	Ky-	f	4dd\	Ky-	f	4d\	4f#\	f
4A\	.	.	4A/ 4e 4cc#	.	4A/ 4e 4cc#	.	4A\	-ri-	4e\	-ri-	4a\	-ri-	.	4cc#\	-ri-	.	4A/	4e\	.
4D\	.	.	4A/ 4f# 4dd	.	4A/ 4f# 4dd	.	4D\	-e	4f#\	-e	4a\	-e	.	4dd\	-e	.	4d\	4f#\	.
!	!	!	!	!	!LO:N:vis=4	!	!	!	!	!	!	!	!	!	!	!	!	!	!
4r	.	.	8r	.	8r	p	4r	.	8r	.	4r	.	.	8r	.	.	4r	4r	.
*	*	*	*8\right	*	*8\right	*	*	*	*8\right	*	*	*	*	*8\right	*	*	*	*	*
.	.	.	8cc#\	p	8ee\	.	.	.	8c#\	e-	.	.	.	8ee\	E-	.	.	.	.
=2	=2	=2	=2	=2	=2	=2	=2	=2	=2	=2	=2	=2	=2	=2	=2	=2	=2	=2	=2
4r	.	.	8dd\L	.	8ff#\L	.	4r	.	8d\L	-lei-	4r	.	.	8ff#\L	-lei-	.	4r	4r	.
*	*	*	*16\right	*	*16\right	*	*8\right	*	*16\right	*	*8\right	*	*	*16\right	*	*	*	*	*
.	.	.	16ee\L	.	16gg\L	.	.	.	(16e\L	.	.	.	.	(16gg\L	.	.	.	.	.
.	.	.	16cc#\JJ	.	16ee\JJ	.	.	.	16c#\JJ)	.	.	.	.	16ee\JJ)	.	.	.	.	.
!	!	!	!LO:TX:a:t=problem:mixed beam	!	!LO:HP:t=for	!	!	!	!	!	!	!	!	!	!	!	!	!	!
!	!	!	!	!LO:HP:t=for	!	!	!	!	!	!	!	!	!	!	!	!	!	!	!
8r	.	.	8dd\L	f	8ff#\L	f	8r	.	8d\	-son	8r	.	.	8ff#\	-son	.	8r	8r	.
!	!	!	!	!	!	!	!	!	!	!	!	!	!	!	!	!	!LO:TX:a:t=problem:mixed beam	!	!
*8\right	*	*	*	*	*	*	*	*	*	*	*	*	*	*	*	*	*8\right	*8\right	*
8B\	.	.	8f#/J	.	8dd\J	.	8B\	e-	8d\	e-	8f#\	e-	.	8dd\	e-	.	8d\L	8f#\L	.
8G\L	6	.	16g/LL	.	8ee\L	.	8G\L	-lei-	4e\	-lei-	(8b\L	-lei-	.	(8ee\L	-lei-	.	8e\	8g\	.
.	.	.	16b/	.	.	.	.	.	.	.	.	.	.	.	.	.	.	.	.
8A\J	7	.	16e/	.	8cc#\	.	8A\J	.	.	.	8a\J)	.	.	8cc#\J)	.	.	8c#/J	8e\J	p
.	.	.	16a/JJ	.	.	.	.	.	.	.	.	.	.	.	.	.	.	.	.
!	!	!	!LO:TX:a:t=problem&colon;mixed beam	!	!	!	!	!	!	!	!	!	!	!	!	!	!	!	!
4D\	.	.	8f#/L	p	8dd\	.	4D\	-son	8f#\	-son	4a\	-son	.	8dd\	-son	.	4d\	4f#\	.
.	.	.	8cc#\J	.	8ee\J	.	.	.	8c#\	e-	.	.	.	8ee\	E-	.	.	.	.
=3	=3	=3	=3	=3	=3	=3	=3	=3	=3	=3	=3	=3	=3	=3	=3	=3	=3	=3	=3
4r	.	.	8dd\L	.	8ff#\L	p	4r	.	8d\L	-lei-	4r	.	.	8ff#\L	-lei-	.	4r	4r	.
.	.	.	16ee\L	.	16gg\L	.	.	.	16e\L	.	.	.	.	16gg\L	.	.	.	.	.
.	.	.	16cc#\JJ	.	16ee\JJ	.	.	.	16c#\JJ	.	.	.	.	16ee\JJ	.	.	.	.	.
!	!	!	!LO:TX:a:t=problem:mixed beam	!	!	!	!	!	!	!	!	!	!	!	!	!	!	!	!
!	!	!	!	!LO:HP:t=for	!	!LO:HP:t=for	!	!	!	!	!	!	!	!	!	!	!	!	!
8r	.	.	8dd\L	f	8ff#\L	f	8r	.	8d\	-son	8r	.	.	8ff#\	-son	.	8r	8r	.
!	!	!	!	!	!	!	!	!	!	!	!	!	!	!	!	!	!LO:TX:a:t=problem:mixed beam	!	!
8B\	5	.	8f#/J	.	8dd\J	.	8B\	{e-	8d\	e-	8f#\	e-	.	8dd\	e-	.	8d\L	8f#\L	.
8G\L	6	.	16g/LL	.	8ee\L	.	8G\L	-lei-	4e\	-lei-	8b\L	-lei-	.	8ee\L	-lei-	.	8e\	8g\	.
.	.	.	16b/	.	.	.	.	.	.	.	.	.	.	.	.	.	.	.	.
8A\J	7	.	16e/	.	8cc#\J	.	8A\J	.	.	.	8a\J	.	.	8cc#\J	.	.	8c#/J	8e\J	p
.	.	.	16a/JJ	.	.	.	.	.	.	.	.	.	.	.	.	.	.	.	.
!	!	!	!	!	!	!LO:HP:t=for	!	!	!	!	!	!	!	!	!	!	!	!	!
4D\	.	.	8f#\L	.	8dd\L	f	4D\	-son}	4f#\	-son	4a\	-son	.	8dd\	-son	.	4d\	4f#\	.
!	!	!	!LO:TX:a:t=problem:niejednoznaczny zapis łuku	!	!LO:TX:a:t=problem:niejednoznaczny zapis łuku	!	!	!	!	!	!	!	!	!	!	!	!	!	!
*	*	*	*32\right	*	*32\right	*	*	*	*	*	*	*	*	*	*	*	*	*	*
.	.	.	(32dd\LL	.	(32dd\LL	.	.	.	.	.	.	.	.	8r	.	.	.	.	.
.	.	.	32ee\	.	32ee\	.	.	.	.	.	.	.	.	.	.	.	.	.	.
.	.	.	32ff#\	.	32ff#\	.	.	.	.	.	.	.	.	.	.	.	.	.	.
.	.	.	32gg\JJJ	.	32gg\JJJ)	.	.	.	.	.	.	.	.	.	.	.	.	.	.
=4	=4	=4	=4	=4	=4	=4	=4	=4	=4	=4	=4	=4	=4	=4	=4	=4	=4	=4	=4
!	!	!	!LO:TX:a:t=problem&colon;niejednoznaczny zapis - staccatissimo / liczba nut (4)	!	!	!	!	!	!	!	!	!	!	!	!	!	!	!	!LO:HP:t=for
*	*	*	*	*	*	*	*	*	*	*	*	*	*	*	*	*	*tremolo	*tremolo	*
*tremolo	*	*	*tremolo	*	*	*	*	*	*	*	*	*	*	*	*	*	*2\right	*2\right	*
8C#/L	6	.	16aa\LL)	.	16aa\LL	.	8C#/	Ky-	8e\	Ky-	8a\	Ky-	.	8ee\	Ky-	.	8A/L	8e\L	f
.	.	.	16aa\	.	16aa\	.	.	.	.	.	.	.	.	.	.	.	.	.	.
8C#/	.	.	16aa\	.	16aa\	.	8C#/	-ri-	8e\	-ri-	8a\	-ri-	.	8ee\	-ri-	.	8A/	8e\	.
.	.	.	16aa\JJ	.	16aa\JJ	.	.	.	.	.	.	.	.	.	.	.	.	.	.
*	*	*	*Xtremolo	*	*	*	*	*	*	*	*	*	*	*	*	*	*	*	*
8C#/	.	.	(16aa\LL	.	(16aa\LL	.	8C#/	-e	8e\	-e	8a\	-e	.	8ee\	-e	.	8A/	8e\	.
.	.	.	16gg\)	.	16gg\)	.	.	.	.	.	.	.	.	.	.	.	.	.	.
!	!	!	!LO:TX:a:t=problem&colon;niejednoznaczny zapis artykulacji w tt. 4-6	!	!LO:TX:a:t=problem&colon;niejednoznaczny zapis artykulacji w tt. 4-9	!	!	!	!	!	!	!	!	!	!	!	!	!	!
8C#/J	.	.	16ff#`\	.	16ff#`\	.	8C#/	e-	8e\	e-	8a\	e-	.	8ee\	E-	.	8A/J	8e\J	.
.	.	.	16ee`\JJ	.	16ee`\JJ	.	.	.	.	.	.	.	.	.	.	.	.	.	.
8D/L	.	.	(16ee\LL	.	(16ee\LL	.	4D/	-lei-	4d\	-lei-	4a\	-lei-	.	4ff#\	-lei-	.	4d\	4f#\	.
.	.	.	16dd\)	.	16dd\)	.	.	.	.	.	.	.	.	.	.	.	.	.	.
8D/	.	.	16dd`\	.	16dd`\	.	.	.	.	.	.	.	.	.	.	.	.	.	.
.	.	.	16dd`\JJ	.	16dd`\JJ	.	.	.	.	.	.	.	.	.	.	.	.	.	.
8D/	.	.	(16dd\LL	.	(16dd\LL	.	4D/	-son	4d\	-son	4a\	-son	.	4ff#\	-son	.	4d\	4f#\	.
.	.	.	16ee\)	.	16ee\)	.	.	.	.	.	.	.	.	.	.	.	.	.	.
8D/J	.	.	16ff#`\	.	16ff#`\	.	.	.	.	.	.	.	.	.	.	.	.	.	.
.	.	.	16gg`\JJ	.	16gg`\JJ	.	.	.	.	.	.	.	.	.	.	.	.	.	.
=5	=5	=5	=5	=5	=5	=5	=5	=5	=5	=5	=5	=5	=5	=5	=5	=5	=5	=5	=5
!	!	!	!LO:TX:a:t=problem&colon;mixed beam	!	!LO:TX:a:t=problem&colon;mixed beam	!	!	!	!	!	!	!	!	!	!	!	!	!	!
8C#/L	6	.	(16aa\LL	.	(16aa\LL	.	8C#/	{Ky-	8e\	Ky-	8a\	Ky-	.	8ee\	Ky-	.	8A/L	8e\L	.
.	.	.	16a/)	.	16a/)	.	.	.	.	.	.	.	.	.	.	.	.	.	.
8C#/	.	.	16aa`\	.	16aa`\	.	8C#/	-ri-	8e\	-ri-	8a\	-ri-	.	8ee\	-ri-	.	8A/	8e\	.
.	.	.	16aa`\JJ	.	16aa`\JJ	.	.	.	.	.	.	.	.	.	.	.	.	.	.
!	!	!	!	!	!LO:LB:g=original	!	!	!	!	!	!	!	!	!	!	!	!	!	!
8C#/	.	.	(16aa\LL	.	(16aa\LL	.	8C#/	-e	8e\	-e	8a\	-e	.	8ee\	-e	.	8A/	8e\	.
.	.	.	16gg\)	.	16gg\)	.	.	.	.	.	.	.	.	.	.	.	.	.	.
8C#/J	.	.	16ff#`\	.	16ff#`\	.	8C#/	e-	8e\	e-	8a\	e-	.	8ee\	E-	.	8A/J	8e\J	.
.	.	.	16ee`\JJ	.	16ee`\JJ	.	.	.	.	.	.	.	.	.	.	.	.	.	.
!	!	!	!	!	!	!	!	!	!LO:LB:g=original	!	!	!	!	!	!	!	!	!	!
8D/L	.	.	(16ee\LL	.	(16ee\LL	.	4D/	-lei-	4d\	-lei-	4a\	-lei-	.	4ff#\	-lei-	.	4d\	4f#\	.
.	.	.	16dd\)	.	16dd\)	.	.	.	.	.	.	.	.	.	.	.	.	.	.
8D/	.	.	16dd`\	.	16dd`\	.	.	.	.	.	.	.	.	.	.	.	.	.	.
.	.	.	16dd`\JJ	.	16dd`\JJ	.	.	.	.	.	.	.	.	.	.	.	.	.	.
!	!	!	!LO:LB:g=original	!	!	!	!	!	!	!	!	!	!	!	!	!	!	!	!
8D/	.	.	(16dd\LL	.	(16dd\LL	.	8D/	-son}	8d\	-son	8a\	-son	.	8ff#\	-son	.	4d\	4f#\	.
.	.	.	16ff#\)	.	16ff#\)	.	.	.	.	.	.	.	.	.	.	.	.	.	.
8D/J	.	.	16ff#`\	.	16ff#`\	.	8D/	e-	8d\	e-	8a\	e-	.	8ff#\	e-	.	.	.	.
.	.	.	16ff#`\JJ	.	16ff#`\JJ	.	.	.	.	.	.	.	.	.	.	.	.	.	.
*Xtremolo	*	*	*	*	*	*	*	*	*	*	*	*	*	*	*	*	*	*	*
=6	=6	=6	=6	=6	=6	=6	=6	=6	=6	=6	=6	=6	=6	=6	=6	=6	=6	=6	=6
!	!	!	!	!	!	!	!	!	!	!	!LO:LB:g=original	!	!	!LO:LB:g=original	!	!	!	!	!
4C#/	6	.	(16ff#\LL	.	(16ff#\LL	.	4C#/	-lei-	4e\	-lei-	4a\	-lei-	.	4ee\	-lei-	.	4A/	4e\	.
.	.	.	16ee\)	.	16ee\)	.	.	.	.	.	.	.	.	.	.	.	.	.	.
.	.	.	16ee`\	.	16ee`\	.	.	.	.	.	.	.	.	.	.	.	.	.	.
.	.	.	16ee`\JJ	.	16ee`\JJ	.	.	.	.	.	.	.	.	.	.	.	.	.	.
8r	.	.	16ee\LL	.	(16ee\LL	.	8r	.	8r	.	8r	.	.	8r	.	.	8r	8r	.
.	.	.	16aa\	.	16aa\)	.	.	.	.	.	.	.	.	.	.	.	.	.	.
!	!	!	!	!	!	!	!LO:LB:g=original	!	!	!	!	!	!	!	!	!	!	!	!
8AA/	.	.	16aa\	.	16aa\	.	8AA/	.	8c#\	.	8a\	.	.	8ee\	.	.	8A/	8e\	.
.	.	.	16aa\JJ	.	16aa\JJ	.	.	.	.	.	.	.	.	.	.	.	.	.	.
4BB/	6|	.	16aa\LL	.	(16aa\LL	.	4BB/	.	4d\	.	4g#X\	.	.	4dd\	.	.	4e\	4e\	.
.	.	.	16gg#X\	.	16gg#X\)	.	.	.	.	.	.	.	.	.	.	.	.	.	.
.	.	.	16gg#\	.	16gg#`\	.	.	.	.	.	.	.	.	.	.	.	.	.	.
.	.	.	16gg#\JJ	.	16gg#`\JJ	.	.	.	.	.	.	.	.	.	.	.	.	.	.
8r	.	.	16gg#\LL	.	(16gg#\LL	.	8r	.	8r	.	8r	.	.	8r	.	.	8r	8r	.
.	.	.	16bb\	.	16bb\)	.	.	.	.	.	.	.	.	.	.	.	.	.	.
8E\	#	.	16bb\	.	16bb`\	.	8E\	.	8e\	.	8g#\	.	.	8dd\	.	.	8e\	8e\	.
.	.	.	16dd\JJ	.	16dd\JJ	.	.	.	.	.	.	.	.	.	.	.	.	.	.
=7	=7	=7	=7	=7	=7	=7	=7	=7	=7	=7	=7	=7	=7	=7	=7	=7	=7	=7	=7
4A\	.	.	16dd\LL	.	(16dd\LL	.	4AA/	-son	4e\	-son	4a\	-son	.	4cc#\	-son	.	4A/	4e\	.
.	.	.	16cc#\	.	16cc#\)	.	.	.	.	.	.	.	.	.	.	.	.	.	.
.	.	.	16cc#\	.	16cc#`\	.	.	.	.	.	.	.	.	.	.	.	.	.	.
.	.	.	16cc#\JJ	.	16cc#`\JJ	.	.	.	.	.	.	.	.	.	.	.	.	.	.
8r	.	.	8cc#\L	.	8cc#\L	.	4r	.	4r	.	4r	.	.	4r	.	.	4r	4r	.
8C#/	3#	.	16ee#X\L	.	16ee#X\L	.	.	.	.	.	.	.	.	.	.	.	.	.	.
.	.	.	16ee#\JJ	.	16ee#\JJ	.	.	.	.	.	.	.	.	.	.	.	.	.	.
!	!	!	!LO:TX:a:t=problem:mixed beam	!	!LO:TX:a:t=problem&colon;mixed beam	!	!	!	!	!	!	!	!	!	!	!	!	!	!
8D\L	3	.	8ff#\L	.	8ff#\L	.	8r	.	8r	.	8r	.	.	8r	.	.	2r	2r	.
.	4|	.	.	.	.	.	.	.	.	.	.	.	.	.	.	.	.	.	.
8E\	.	.	16.a#X/L	.	16.a#X/L	.	8E\	{e-	8c#\	e-	8f#\	e-	.	8a#X\	e-	.	.	.	.
.	.	.	32a#/JJk	.	32a#/JJk	.	.	.	.	.	.	.	.	.	.	.	.	.	.
8D\	6	.	8b\L	.	8b\L	.	8D\L	-lei-	8d\L	-lei-	4f#\	-lei-	.	(8b\L	-lei-	.	.	.	.
8C#\J	6|	.	16.cc#\L	.	16.cc#\L	.	8C#\J	.	8e\J	.	.	.	.	8cc#\J)	.	.	.	.	.
.	.	.	32cc#\JJk	.	32cc#\JJk	.	.	.	.	.	.	.	.	.	.	.	.	.	.
=8	=8	=8	=8	=8	=8	=8	=8	=8	=8	=8	=8	=8	=8	=8	=8	=8	=8	=8	=8
!	!	!	!	!	!	!	!	!	!	!	!	!	!	!	!	!	!LO:TX:a:t=problem&colon;pauzy 00r adnotacja "4"	!LO:TX:a:t=problem&colon;pauzy 00r adnotacja "4"	!
4BB/	.	.	16dd\LL	.	(16dd\LL	.	4BB/	-son}	4d\	-son	4f#\	-son	.	4dd\	-son	.	1r	1r	.
.	.	.	16b\	.	16b\)	.	.	.	.	.	.	.	.	.	.	.	.	.	.
.	.	.	16a#X\	.	16a#X`\	.	.	.	.	.	.	.	.	.	.	.	.	.	.
.	.	.	16cc#\JJ	.	16cc#`\JJ	.	.	.	.	.	.	.	.	.	.	.	.	.	.
4r	.	.	8b\L	.	8b\L	.	4r	.	4r	.	4r	.	.	4r	.	.	.	.	.
.	.	.	16.dd#X\L	.	16.dd#X\L	.	.	.	.	.	.	.	.	.	.	.	.	.	.
.	.	.	32dd#\JJk	.	32dd#\JJk	.	.	.	.	.	.	.	.	.	.	.	.	.	.
!	!	!	!LO:TX:a:t=problem:mixed beam	!	!LO:TX:a:t=problem:mixed beam	!	!	!	!	!	!	!	!	!	!	!	!	!	!
!	!	!	!	!	!LO:LB:g=original	!	!	!	!	!	!	!	!	!	!	!	!	!	!
4BB/	3#	.	8ee\L	.	8ee\L	.	8r	.	8r	.	8r	.	.	8r	.	.	.	.	.
.	.	.	16.g#X/L	.	16.g#X/L	.	8D\	e-	8B\	e-	8e\	{e-	.	8g#X\	e-	.	.	.	.
.	.	.	32g#/JJk	.	32g#/JJk	.	.	.	.	.	.	.	.	.	.	.	.	.	.
!LO:TX:a:t=problem:niewyraźne cyfrowanie	!	!	!	!	!	!	!	!	!	!	!	!	!	!	!	!	!	!	!
8C#/L	3	.	8a#/L	.	8a#/L	.	8C#/L	-lei-	8c#\L	-lei-	4e\	-lei-	.	(8a\L	-lei-	.	.	.	.
8D/J	.	.	16.b/L	.	16.b/L	.	8BB/J	.	8d\J	.	.	.	.	8b\J)	.	.	.	.	.
.	.	.	32b/JJk	.	32b/JJk	.	.	.	.	.	.	.	.	.	.	.	.	.	.
=9	=9	=9	=9	=9	=9	=9	=9	=9	=9	=9	=9	=9	=9	=9	=9	=9	=9	=9	=9
!LO:LB:g=original	!	!	!	!	!	!	!	!	!	!	!	!	!	!	!	!	!	!	!
4AA/	.	.	16cc#\LL	.	(16cc#\LL	.	4AA/	-son	4c#\	-son	4e\	-son}	.	4cc#\	-son	.	1r	1r	.
.	.	.	16a\	.	16a\)	.	.	.	.	.	.	.	.	.	.	.	.	.	.
.	.	.	16g#X\	.	16g#X`\	.	.	.	.	.	.	.	.	.	.	.	.	.	.
.	.	.	16b\JJ	.	16b`\JJ	.	.	.	.	.	.	.	.	.	.	.	.	.	.
4r	.	.	8a\L	.	8a\L	.	4r	.	4r	.	4r	.	.	4r	.	.	.	.	.
.	.	.	8a\J	.	8a\J	.	.	.	.	.	.	.	.	.	.	.	.	.	.
*2\right	*	*	*	*	*	*	*	*	*	*	*	*	*	*	*	*	*	*	*
2F#\	6|	.	8dd#X\L	.	8a\L 8aa	.	8F#\	Ky-	8B\	Ky-	8a\	Ky-	.	8dd#X\	Ky-	.	.	.	.
.	.	.	16.dd#\L	.	16.aa\L	.	8F#\	-ri-	8B\	-ri-	8a\	-ri-	.	8dd#\	-ri-	.	.	.	.
.	.	.	32dd#\JJk	.	32aa\JJk	.	.	.	.	.	.	.	.	.	.	.	.	.	.
.	.	.	8dd#\L	.	8aa\L	.	8F#\	-e	8B\	-e	8a\	-e	.	8dd#\	-e	.	.	.	.
.	.	.	8dd#\J	.	8aa\J	.	8F#\	e-	8B\	e-	8a\	e-	.	8dd#\	e-	.	.	.	.
=10	=10	=10	=10	=10	=10	=10	=10	=10	=10	=10	=10	=10	=10	=10	=10	=10	=10	=10	=10
!	!	!	!LO:LB:g=original	!	!	!	!	!	!	!	!	!	!	!	!	!	!	!	!
4E\	#	.	(16ff#\LL	.	16aa\LL	.	4E\	-lei-	4B\	-lei-	4g#X\	-lei-	.	4ee\	-lei-	.	1r	1r	.
.	.	.	16ee\)	.	16gg#X\	.	.	.	.	.	.	.	.	.	.	.	.	.	.
!	!	!	!LO:TX:a:t=SIC&colon;s=16dd#	!	!	!	!	!	!	!	!	!	!	!	!	!	!	!	!
.	.	.	(16dd\	.	16ff#\	.	.	.	.	.	.	.	.	.	.	.	.	.	.
.	.	.	16ee\JJ)	.	16ee\JJ	.	.	.	.	.	.	.	.	.	.	.	.	.	.
!	!	!	!LO:TX:a:t=SIC&colon;s=16dd#	!	!	!	!	!	!	!	!	!	!	!	!	!	!	!	!
4r	.	.	(16dd\LL	.	16dd#X\LL	.	4E\	-son	4B\	-son	4g#\	-son	.	4ee\	-son	.	.	.	.
.	.	.	16ee\)	.	16ee\	.	.	.	.	.	.	.	.	.	.	.	.	.	.
!	!	!	!LO:TX:a:t=SIC&colon;s=16dd#	!	!	!	!	!	!	!	!	!	!	!	!	!	!	!	!
.	.	.	(16dd\	.	16dd#\	.	.	.	.	.	.	.	.	.	.	.	.	.	.
.	.	.	16ee\JJ)	.	16ee\JJ	.	.	.	.	.	.	.	.	.	.	.	.	.	.
2G#X\	6 5	.	8e/L 8b	.	8bb\L	.	8G#X\	{Ky-	8e\	Ky-	8b\	{Ky-	.	8dd#X\	Ky-	.	.	.	.
.	.	.	16.b/L	.	16.ddn\L	.	8G#\	-ri-	8e\	-ri-	8b\	-ri-	.	8dd#\	-ri-	.	.	.	.
.	.	.	32b/JJk	.	32dd\JJk	.	.	.	.	.	.	.	.	.	.	.	.	.	.
.	.	.	8b\L	.	8dd\L	.	8G#\	-e	8e\	-e	8b\	-e	.	8dd#\	-e	.	.	.	.
.	.	.	8b\J	.	8dd\J	.	8G#\	e-	8e\	e-	8b\	e-	.	8dd#\	e-	.	.	.	.
=11	=11	=11	=11	=11	=11	=11	=11	=11	=11	=11	=11	=11	=11	=11	=11	=11	=11	=11	=11
4A\	.	.	(16b\LL	.	16dd\LL	.	4A\	-lei-	4e\	-lei-	4a\	-lei-	.	4cc#\	-lei-	.	1r	1r	.
.	.	.	16a\)	.	16cc#\	.	.	.	.	.	.	.	.	.	.	.	.	.	.
.	.	.	(16g#X\	.	16b\	.	.	.	.	.	.	.	.	.	.	.	.	.	.
.	.	.	16a\JJ)	.	16a\JJ	.	.	.	.	.	.	.	.	.	.	.	.	.	.
4r	.	.	(16g#\LL	.	16g#X/LL	.	4A\	-son}	4e\	-son	4a\	-son}	.	4cc#\	-son	.	.	.	.
.	.	.	16a\)	.	16a/	.	.	.	.	.	.	.	.	.	.	.	.	.	.
.	.	.	(16g#\	.	16g#/	.	.	.	.	.	.	.	.	.	.	.	.	.	.
.	.	.	16a\JJ)	.	16a/JJ	.	.	.	.	.	.	.	.	.	.	.	.	.	.
!	!	!	!LO:TX:a:t=problem&colon;niejednoznaczny zapis - staccato / liczba nut (4)	!	!	!	!	!	!	!	!	!	!	!	!	!	!	!	!
*	*	*	*tremolo	*	*	*	*	*	*	*	*	*	*	*	*	*	*	*	*
8A\L	.	.	16a\LL	.	16cc#\LL	.	4A\	Ky-	4e\	Ky-	4a\	Ky-	.	4cc#\	Ky-	.	.	.	.
.	.	.	16a\	.	16cc#\	.	.	.	.	.	.	.	.	.	.	.	.	.	.
8A\	.	.	16a\	.	16cc#\	.	.	.	.	.	.	.	.	.	.	.	.	.	.
.	.	.	16a\JJ	.	16cc#\JJ	.	.	.	.	.	.	.	.	.	.	.	.	.	.
!	!	!	!LO:TX:a:t=problem&colon;niejednoznaczny zapis - staccato / liczba nut (3)	!	!	!	!	!	!	!	!	!	!	!	!	!	!	!	!
*	*	*	*	*	*tremolo	*	*	*	*	*	*	*	*	*	*	*	*	*	*
8F#\	6	.	16a\LL	.	16dd\LL	.	4F#\	-ri-	4d\	-ri-	4a\	-ri-	.	4dd\	-ri-	.	.	.	.
.	.	.	16a\	.	16dd\	.	.	.	.	.	.	.	.	.	.	.	.	.	.
8F#\J	.	.	16a\	.	16dd\	.	.	.	.	.	.	.	.	.	.	.	.	.	.
.	.	.	16a\JJ	.	16dd\JJ	.	.	.	.	.	.	.	.	.	.	.	.	.	.
=12	=12	=12	=12	=12	=12	=12	=12	=12	=12	=12	=12	=12	=12	=12	=12	=12	=12	=12	=12
!	!	!	!	!	!	!	!	!	!LO:LB:g=original	!	!	!	!	!	!	!	!	!	!
8C#/L	6	.	16a\LL	.	16ee\LL	.	4C#/	-e	4c#\	-e	4a\	-e	.	4ee\	-e	.	2r	2r	.
.	.	.	16a\	.	16ee\	.	.	.	.	.	.	.	.	.	.	.	.	.	.
8C#/	.	.	16a\	.	16ee\	.	.	.	.	.	.	.	.	.	.	.	.	.	.
.	.	.	16a\JJ	.	16ee\JJ	.	.	.	.	.	.	.	.	.	.	.	.	.	.
8D/	.	.	16a\LL	.	16ff#\LL	.	4D/	e-	4f#\	e-	4a\	e-	.	4dd\	e-	.	.	.	.
.	.	.	16a\	.	16ff#\	.	.	.	.	.	.	.	.	.	.	.	.	.	.
8D/J	.	.	16a\	.	16ff#\	.	.	.	.	.	.	.	.	.	.	.	.	.	.
.	.	.	16a\JJ	.	16ff#\JJ	.	.	.	.	.	.	.	.	.	.	.	.	.	.
!LO:TX:a:t=problem&colon;mixed beam	!	!	!	!	!	!	!	!	!	!	!	!	!	!	!	!	!	!	!
*	*	*	*	*	*Xtremolo	*	*2\right	*	*2\right	*	*	*	*	*	*	*	*	*	*
8E\L	4	.	16e/LL 16cc#	.	16cc#\LL	.	2E\	-lei-	2e\	-lei-	(4a\	-lei-	.	(4cc#\	-lei-	.	2e\	2e\	.
.	.	.	16e/ 16cc#	.	16aa\	.	.	.	.	.	.	.	.	.	.	.	.	.	.
8E\	.	.	16e/ 16cc#	.	16cc#\	.	.	.	.	.	.	.	.	.	.	.	.	.	.
.	.	.	16e/JJ 16cc#	.	16aa\JJ	.	.	.	.	.	.	.	.	.	.	.	.	.	.
8EE/	#	.	16e/LL 16b	.	16b\LL	.	.	.	.	.	4g#X\)	.	.	4b\)	.	.	.	.	.
.	.	.	16e/ 16b	.	16gg#X\	.	.	.	.	.	.	.	.	.	.	.	.	.	.
8EE/J	.	.	16e/ 16b	.	16b\	.	.	.	.	.	.	.	.	.	.	.	.	.	.
.	.	.	16e/JJ 16b	.	16gg#\JJ	.	.	.	.	.	.	.	.	.	.	.	.	.	.
*	*	*	*Xtremolo	*	*	*	*	*	*	*	*	*	*	*	*	*	*	*	*
=13	=13	=13	=13	=13	=13	=13	=13	=13	=13	=13	=13	=13	=13	=13	=13	=13	=13	=13	=13
!	!	!	!	!	!LO:LB:g=original	!	!LO:LB:g=original	!	!	!	!LO:LB:g=original	!	!	!	!	!	!	!	!
4AA/	.	.	4cc#\	.	4aa\	.	4AA/	-son	4e\	-son	4a\	-son	.	4cc#\	-son	.	4A/	4e\	.
4r	.	.	8r	.	8r	.	4r	.	4r	.	8r	.	.	8r	.	.	4r	4r	.
!	!	!	!	!	!	!	!	!	!	!	!	!	!	!LO:LB:g=original	!	!	!	!	!
.	.	.	8g#X/	p	8b\	p	.	.	.	.	8g#X\	e-	.	8b\	E-	.	.	.	.
4r	.	.	8a/L	.	8cc#\L	.	2r	.	4r	.	8a\L	-lei-	.	8cc#\L	-lei-	.	2r	2r	.
*	*	*	*	*	*	*	*	*	*	*	*16\right	*	*	*	*	*	*	*	*
.	.	.	16b/L	.	16dd\L	.	.	.	.	.	16b\L	.	.	(16dd\L	.	.	.	.	.
.	.	.	16g#/JJ	.	16b\JJ	.	.	.	.	.	16g#\JJ	.	.	16b\JJ)	.	.	.	.	.
*clefC4	*	*	*	*	*	*	*	*	*	*	*	*	*	*	*	*	*	*	*
*k[f#c#]	*	*	*	*	*	*	*	*	*	*	*	*	*	*	*	*	*	*	*
!LO:TX:a:t=problem:znaki przykluczowe	!	!	!	!	!	!	!	!	!	!	!	!	!	!	!	!	!	!	!
!	!	!LO:HP:t=fo	!	!LO:HP:t=for	!	!LO:HP:t=for	!	!	!	!	!	!	!	!	!	!	!	!	!
8r	.	.	8a/L	f	8cc#\L	f	.	.	8r	.	8a\	-son	.	8cc#\	-son	.	.	.	.
!LO:TX:a:t=problem&colon;dynamika "fo&colon;"	!	!	!	!	!	!	!	!	!	!	!	!	!	!	!	!	!	!	!
8f#\	5	f	8c#/J	.	8a\J	.	.	.	8f#\	e-	8a\	e-	.	8cc#\	e-	.	.	.	.
=14	=14	=14	=14	=14	=14	=14	=14	=14	=14	=14	=14	=14	=14	=14	=14	=14	=14	=14	=14
!	!	!	!	!	!	!	!	!	!	!	!	!	!	!	!	!	!LO:LB:g=original	!LO:LB:g=original	!
!	!	!	!	!	!LO:TX:a:t=problem:mixed beam	!	!	!	!	!	!	!	!	!	!	!	!LO:TX:a:t=problem&colon;pauzy / adnotacja "10"	!LO:TX:a:t=problem&colon;pauzy / adnotacja "10"	!
8d\L	6	.	16d/LL	.	8b\L	.	2r	.	8d\L	-lei-	(8b\L	-lei-	.	8dd\L	-lei-	.	1r	1r	.
.	.	.	16f#/	.	.	.	.	.	.	.	.	.	.	.	.	.	.	.	.
8e\J	#	.	16B/	.	8g#X\	.	.	.	8e\J	.	8g#X\J)	.	.	8b\J	.	.	.	.	.
.	.	.	16d/JJ	.	.	.	.	.	.	.	.	.	.	.	.	.	.	.	.
!	!	!	!LO:TX:a:t=problem:mixed beam	!	!	!	!	!	!	!	!	!	!	!	!	!	!	!	!
4A\	.	.	8c#/L	.	8a\	.	.	.	4A\	-son	8a\L	-son	.	8cc#\	-son	.	.	.	.
.	.	.	8ee#X\J	.	8gg#X/J	.	.	.	.	.	8e#X\J	.	.	8g#X\	e-	.	.	.	.
*clefF4	*	*	*	*	*	*	*	*	*	*	*	*	*	*	*	*	*	*	*
!LO:TX:a:t=problem&colon;znaki przykluczowe	!	!	!	!	!	!	!	!	!	!	!	!	!	!	!	!	!	!	!
4r	.	.	8ff#\L	p	8aa\L	p	4r	.	4r	.	8f#\L	e-	.	8a\L	-lei-	.	.	.	.
.	.	.	16gg\L	.	16bb\L	.	.	.	.	.	16g#\L	-lei-	.	(16b\L	.	.	.	.	.
.	.	.	16ee#\JJ	.	16gg#\JJ	.	.	.	.	.	16e#\JJ	.	.	16g#\JJ)	.	.	.	.	.
!	!	!	!	!LO:HP:t=for	!	!LO:HP:t=for	!	!	!	!	!	!	!	!	!	!	!	!	!
8r	.	.	8ff#\L	f	8aa\L	f	8r	.	8r	.	8f#\	-son	.	8a\	-son	.	.	.	.
!LO:TX:a:t=problem&colon;dynamika "fo&colon;"	!	!	!	!	!	!	!	!	!	!	!	!	!	!	!	!	!	!	!
8d\	.	f	8a/J	.	8ff#\J	.	8d\	e-	8f#\	e-	8a\	e-	.	8ff#\	e-	.	.	.	.
=15	=15	=15	=15	=15	=15	=15	=15	=15	=15	=15	=15	=15	=15	=15	=15	=15	=15	=15	=15
!	!	!	!	!LO:HP:t=for	!	!	!	!	!	!	!	!	!	!	!	!	!	!	!
8B\L	6|	.	16b\LL	f	8gg#X\L	.	8B\L	-lei-	8d\L	-lei-	(8b\L	-lei-	.	(8gg#X\L	-lei-	.	1r	1r	.
.	.	.	16dd\	.	.	.	.	.	.	.	.	.	.	.	.	.	.	.	.
!	!	!	!	!	!	!	!	!	!	!	!LO:TX:a:t=SIC&colon;s=8g#	!	!	!	!	!	!	!	!
8c#\J	#	.	16g#X\	.	8ee#X\J	.	8c#\J	.	8c#\J	.	8g\J)	.	.	8ee#X\J)	.	.	.	.	.
.	.	.	16b\JJ	.	.	.	.	.	.	.	.	.	.	.	.	.	.	.	.
*	*	*	*4\right	*	*4\right	*	*	*	*	*	*	*	*	*	*	*	*	*	*
4F#\	.	.	4a\	.	4ff#\	.	4F#\	-son	4c#\	-son	4a\	-son	.	4ff#\	-son	.	.	.	.
2D#X\	6 5	.	8b\L 8ff#	.	8a\L 8aa	.	8D#X\	Ky-	8B\	Ky-	8a\	Ky-	.	8ff#\	Ky-	.	.	.	.
.	.	.	16.ff#\L	.	16.aa\L	.	8D#\	-ri-	8B\	-ri-	8a\	-ri-	.	8ff#\	-ri-	.	.	.	.
.	.	.	32ff#\JJk	.	32aa\JJk	.	.	.	.	.	.	.	.	.	.	.	.	.	.
!	!	!	!LO:LB:g=original	!	!	!	!	!	!	!	!	!	!	!	!	!	!	!	!
.	.	.	8ff#\L	.	8aa\L	.	8D#\	-e	8B\	-e	8a\	-e	.	8ff#\	-e	.	.	.	.
.	.	.	8ff#\J	.	8aa\J	.	8D#\	e-	8B\	e-	8a\	e-	.	8ff#\	e-	.	.	.	.
=16	=16	=16	=16	=16	=16	=16	=16	=16	=16	=16	=16	=16	=16	=16	=16	=16	=16	=16	=16
!	!	!	!LO:TX:a:t=problem:kreska nad dźwiękiem	!	!	!	!	!	!	!	!	!	!	!	!	!	!	!	!
4E\	3n	.	16ff#\LL	.	16aa\LL	.	4E\	-lei-	4B\	-lei-	4gn\	-lei-	.	4ee\	-lei-	.	1r	1r	.
.	.	.	16ee\	.	16ggn\	.	.	.	.	.	.	.	.	.	.	.	.	.	.
.	.	.	(16dd#X\	.	16ff#\	.	.	.	.	.	.	.	.	.	.	.	.	.	.
.	.	.	16ee\JJ)	.	16ee\JJ	.	.	.	.	.	.	.	.	.	.	.	.	.	.
4r	.	.	16dd#\LL	.	16dd#X\LL	.	4E\	-son	4B\	-son	4g\	-son	.	4ee\	-son	.	.	.	.
.	.	.	16ee\	.	16ee\	.	.	.	.	.	.	.	.	.	.	.	.	.	.
.	.	.	16dd#\	.	16dd#\	.	.	.	.	.	.	.	.	.	.	.	.	.	.
.	.	.	16ee\JJ	.	16ee\JJ	.	.	.	.	.	.	.	.	.	.	.	.	.	.
2C#/	6 5	.	8a\L 8ee	.	8a\L 8gg	.	8C#/	{Ky-	8A\	Ky-	8g\	{Ky-	.	8ee\	Ky-	.	.	.	.
.	.	.	16.ee\L	.	16.gg\L	.	8C#/	-ri-	8A\	-ri-	8g\	-ri-	.	8ee\	-ri-	.	.	.	.
.	.	.	32ee\JJk	.	32gg\JJk	.	.	.	.	.	.	.	.	.	.	.	.	.	.
.	.	.	8ee\L	.	8gg\L	.	8C#/	-e	8A\	-e	8g\	-e	.	8ee\	-e	.	.	.	.
.	.	.	8ee\J	.	8gg\J	.	8C#/	e-	8A\	e-	8g\	e-	.	8ee\	e-	.	.	.	.
=17	=17	=17	=17	=17	=17	=17	=17	=17	=17	=17	=17	=17	=17	=17	=17	=17	=17	=17	=17
4D\	.	.	16ee\LL	.	16gg\LL	.	4D\	-lei-	4A\	-lei-	4f#\	-lei-	.	4dd\	-lei-	.	1r	1r	.
.	.	.	16dd\	.	16ff#\	.	.	.	.	.	.	.	.	.	.	.	.	.	.
.	.	.	16cc#\	.	16ee\	.	.	.	.	.	.	.	.	.	.	.	.	.	.
.	.	.	16dd\JJ	.	16dd\JJ	.	.	.	.	.	.	.	.	.	.	.	.	.	.
4r	.	.	16cc#\LL	.	16cc#\LL	.	4D\	-son	4A\	-son	4f#\	-son}	.	4dd\	-son	.	.	.	.
.	.	.	16dd\	.	16dd\	.	.	.	.	.	.	.	.	.	.	.	.	.	.
.	.	.	16cc#\	.	16cc#\	.	.	.	.	.	.	.	.	.	.	.	.	.	.
.	.	.	16dd\JJ	.	16dd\JJ	.	.	.	.	.	.	.	.	.	.	.	.	.	.
2F#\	6	.	8dd\L	.	8a\L 8aa	.	8F#\	{Ky-	8d\	Ky-	8a\	Ky-	.	8dd\	Ky-	.	.	.	.
.	.	.	16.dd\L	.	16.aa\L	.	8F#\	-ri-	8d\	-ri-	8a\	-ri-	.	8dd\	-ri-	.	.	.	.
.	.	.	32dd\JJk	.	32aa\JJk	.	.	.	.	.	.	.	.	.	.	.	.	.	.
.	.	.	8dd\L	.	8aa\L	.	8F#\	-e	8d\	-e	8a\	-e	.	8dd\	-e	.	.	.	.
.	.	.	8dd\J	.	8aa\J	.	8F#\	e}-	8d\	e-	8a\	e-	.	8dd\	e-	.	.	.	.
=18	=18	=18	=18	=18	=18	=18	=18	=18	=18	=18	=18	=18	=18	=18	=18	=18	=18	=18	=18
!LO:LB:g=original	!	!	!	!	!LO:LB:g=original	!	!	!	!	!	!	!	!	!LO:TX:a:t=problem&colon;niejednoznaczny zapis łuku	!	!	!	!	!
*	*	*	*	*	*	*	*	*	*	*	*2\right	*	*	*	*	*	*	*	*
4G\	.	.	16dd\LL	.	(16bb\LL	.	(4.G\	-lei-	4d\	-lei-	2b\	-lei-	.	(4.dd\	-lei-	.	1r	1r	.
.	.	.	16b\	.	16gg\)	.	.	.	.	.	.	.	.	.	.	.	.	.	.
.	.	.	16b\	.	(16gg\	.	.	.	.	.	.	.	.	.	.	.	.	.	.
.	.	.	16a\JJ	.	16ff#\JJ)	.	.	.	.	.	.	.	.	.	.	.	.	.	.
8r	.	.	16b\LL	.	(16gg\LL	.	.	.	4e\	.	.	.	.	.	.	.	.	.	.
.	.	.	16g\	.	16ee\)	.	.	.	.	.	.	.	.	.	.	.	.	.	.
8G#X\	6 5	.	16g\	.	(16ee\	.	8G#X\)	.	.	.	.	.	.	16ee\LL	.	.	.	.	.
.	.	.	16f#\JJ	.	16dd\JJ)	.	.	.	.	.	.	.	.	16dd\JJ)	.	.	.	.	.
!LO:TX:a:t=problem:mixed beam	!	!	!	!	!	!	!	!	!	!	!	!	!	!	!	!	!	!	!
.	.	.	.	.	.	.	.	.	.	.	.	.	.	8qqdd/	.	.	.	.	.
!	!	!	!	!	!	!	!	!	!LO:LB:g=original	!	!	!	!	!	!	!	!	!	!
8A\L	.	.	8f#/L	.	8dd\L	.	4A\	-son	4e\	-son	4a\	-son	.	4cc#\	-son	.	.	.	.
8AA/J	.	.	8e/J	.	8cc#\J	.	.	.	.	.	.	.	.	.	.	.	.	.	.
4r	.	.	8r	.	8r	.	4r	.	4r	.	8r	.	.	8r	.	.	.	.	.
!	!	!	!	!	!	!	!	!	!	!	!	!	!	!LO:LB:g=original	!	!	!	!	!
!	!	!	!	!	!	!	!	!	!	!	!	!	!	!LO:TX:a:t=Solo	!	!	!	!	!
!	!	!	!	!	!	!	!	!	!	!	!LO:LB:g=original	!	!	!	!	!	!	!	!
.	.	.	8f#/	.	8a/	.	.	.	.	.	8f#\	e-	.	8a\	E-	.	.	.	.
=19	=19	=19	=19	=19	=19	=19	=19	=19	=19	=19	=19	=19	=19	=19	=19	=19	=19	=19	=19
!	!	!LO:HP:t=piano	!	!	!	!	!LO:TX:a:t=problem&colon;pauzy 00r 0r adnotacja "6"	!	!LO:TX:a:t=problem&colon;pauzy 00r 0r adnotacja "6"	!	!	!	!	!	!	!	!	!	!
8A\L	.	p	4.f#/	p	4.a/	p	1r	.	1r	.	4.f#\	-lei-	.	4.a\	-lei-	.	1r	1r	.
8A\	.	.	.	.	.	.	.	.	.	.	.	.	.	.	.	.	.	.	.
8A\	.	.	.	.	.	.	.	.	.	.	.	.	.	.	.	.	.	.	.
8A\J	.	.	16d/LL	.	16f#/LL	.	.	.	.	.	16d\LL	.	.	16f#\LL	.	.	.	.	.
.	.	.	16e/JJ	.	16g/JJ	.	.	.	.	.	16e\JJ	.	.	16g\JJ	.	.	.	.	.
*tremolo	*	*	*	*	*	*	*	*	*	*	*	*	*	*	*	*	*	*	*
8A\L	.	.	8f#/L	.	(8a/L	.	.	.	.	.	8f#\L	.	.	(8a\L	.	.	.	.	.
8A\	.	.	8d/J	.	8f#/J)	.	.	.	.	.	8d\J	.	.	8f#\J)	.	.	.	.	.
8A\	.	.	8r	.	8r	.	.	.	.	.	8r	.	.	8r	.	.	.	.	.
8A\J	.	.	8f#/	.	8a/	.	.	.	.	.	8f#\	.	.	8a\	.	.	.	.	.
=20	=20	=20	=20	=20	=20	=20	=20	=20	=20	=20	=20	=20	=20	=20	=20	=20	=20	=20	=20
!	!	!	!	!	!	!	!	!	!	!	!	!	!	!LO:TX:a:t=problem&colon;niejednoznaczny zapis łuku	!	!	!	!	!
8A\L	.	.	(8f#/L	.	8a/L	.	1r	.	1r	.	8f#\L	.	.	(8a\L	.	.	1r	1r	.
8A\	.	.	8d/)	.	8f#/	.	.	.	.	.	8d\	.	.	8f#\	.	.	.	.	.
8A\	.	.	(8g/	.	8b/	.	.	.	.	.	8g\	.	.	8b\)	.	.	.	.	.
8A\J	.	.	8f#/J)	.	8a/J	.	.	.	.	.	8f#\J	.	.	8a\J	.	.	.	.	.
8A\L	.	.	8f#/L	.	(8a/L	.	.	.	.	.	8f#\L	.	.	8a\L	.	.	.	.	.
8A\	.	.	8e/J	.	8g/J)	.	.	.	.	.	8e\J	.	.	8g\J	.	.	.	.	.
8A\	.	.	8r	.	8r	.	.	.	.	.	8r	.	.	8r	.	.	.	.	.
8A\J	.	.	8c#/ 8e	.	8e/	.	.	.	.	.	8c#\	.	.	8e/	.	.	.	.	.
=21	=21	=21	=21	=21	=21	=21	=21	=21	=21	=21	=21	=21	=21	=21	=21	=21	=21	=21	=21
!	!	!	!LO:LB:g=original	!	!	!	!	!	!	!	!	!	!	!	!	!	!	!	!
8A\L	.	.	4.e/	.	4.g/	.	1r	.	1r	.	4.e\	.	.	4.g\	.	.	1r	1r	.
8A\	.	.	.	.	.	.	.	.	.	.	.	.	.	.	.	.	.	.	.
8A\	.	.	.	.	.	.	.	.	.	.	.	.	.	.	.	.	.	.	.
8A\J	.	.	16c#/LL	.	16e/LL	.	.	.	.	.	16c#\LL	.	.	16e\LL	.	.	.	.	.
.	.	.	16d/JJ	.	16f#/JJ	.	.	.	.	.	16d\JJ	.	.	16f#\JJ	.	.	.	.	.
8A\L	.	.	8e/L	.	8g/L	.	.	.	.	.	(8e\L	.	.	8g\L	.	.	.	.	.
8A\	.	.	8c#/J	.	8e/J	.	.	.	.	.	8c#\J)	.	.	8e\J	.	.	.	.	.
8A\	.	.	8r	.	8r	.	.	.	.	.	8r	.	.	8r	.	.	.	.	.
8A\J	.	.	8e/	.	8g/	.	.	.	.	.	8e\	.	.	8g\	.	.	.	.	.
=22	=22	=22	=22	=22	=22	=22	=22	=22	=22	=22	=22	=22	=22	=22	=22	=22	=22	=22	=22
8A\L	.	.	8e/L	.	8g/L	.	1r	.	1r	.	8e\L	.	.	(8g\L	.	.	1r	1r	.
8A\	.	.	8c#/	.	8e/	.	.	.	.	.	8c#\	.	.	8e\)	.	.	.	.	.
8A\	.	.	8f#/	.	8a/	.	.	.	.	.	(8f#\	.	.	8a\	.	.	.	.	.
8A\J	.	.	8e/J	.	8g/J	.	.	.	.	.	8e\J)	.	.	8g\J	.	.	.	.	.
8A\L	.	.	8e/L	.	8g/L	.	.	.	.	.	(8e\L	-son	.	8g\L	-son	.	.	.	.
8A\	.	.	8d/J	.	8f#/J	.	.	.	.	.	8d\J)	.	.	8f#\J	.	.	.	.	.
8A\	.	.	8r	.	8r	.	.	.	.	.	8r	.	.	8r	.	.	.	.	.
8A\J	.	.	8f#/	.	[8a/	.	.	.	.	.	8f#\	e-	.	8a\	E-	.	.	.	.
=23	=23	=23	=23	=23	=23	=23	=23	=23	=23	=23	=23	=23	=23	=23	=23	=23	=23	=23	=23
8A\L	.	.	4.f#/	.	8a/]	.	1r	.	1r	.	4.f#\	-lei-	.	8a\	-lei-	.	1r	1r	.
8A\	.	.	.	.	4dd\	.	.	.	.	.	.	.	.	4dd\	.	.	.	.	.
8A\	.	.	.	.	.	.	.	.	.	.	.	.	.	.	.	.	.	.	.
8A\J	.	.	8d/	.	8f#/	.	.	.	.	.	8d\	.	.	8f#/	.	.	.	.	.
.	.	.	.	.	.	.	.	.	.	.	.	.	.	8qqf#/	.	.	.	.	.
8A\L	.	.	8d/L	.	8f#/L	.	.	.	.	.	4c#\	-son	.	4e/	-son	.	.	.	.
8A\	.	.	8c#/J	.	8e/J	.	.	.	.	.	.	.	.	.	.	.	.	.	.
8A\	.	.	8r	.	8r	.	.	.	.	.	8r	.	.	8r	.	.	.	.	.
8A\J	.	.	8f#/	.	[8a/	.	.	.	.	.	8f#\	e-	.	8a\	e-	.	.	.	.
=24	=24	=24	=24	=24	=24	=24	=24	=24	=24	=24	=24	=24	=24	=24	=24	=24	=24	=24	=24
!	!	!	!	!	!LO:LB:g=original	!	!	!	!	!	!	!	!	!	!	!	!	!	!
8A\L	.	.	4.f#/	.	8a/]	.	1r	.	1r	.	4.f#\	-lei-	.	8a\	-lei-	.	2r	2r	.
8A\	.	.	.	.	4dd\	.	.	.	.	.	.	.	.	4dd\	.	.	.	.	.
8A\	.	.	.	.	.	.	.	.	.	.	.	.	.	.	.	.	.	.	.
8A\J	.	.	8d/	.	8f#/	.	.	.	.	.	8d\	.	.	8f#/	.	.	.	.	.
.	.	.	.	.	(4qqf#/	.	.	.	.	.	8qqd/	.	.	4qqf#/	.	.	.	.	.
4A\	.	.	4c#/	.	4e/)	.	.	.	.	.	4c#\	-son	.	4e/	-son	.	4r	4r	.
4r	.	.	8r	.	8r	.	.	.	.	.	4r	.	.	4r	.	.	8r	8r	.
!	!	!	!	!	!	!LO:HP:t=for	!	!	!	!	!	!	!	!	!	!	!	!	!
.	.	.	8A/	.	8a/	f	.	.	.	.	.	.	.	.	.	.	8A/	8A/	.
=25	=25	=25	=25	=25	=25	=25	=25	=25	=25	=25	=25	=25	=25	=25	=25	=25	=25	=25	=25
!	!	!	!	!LO:HP:t=for	!	!	!	!	!	!	!	!	!	!	!	!	!	!	!LO:HP:t=for
4r	.	.	8d/L	f	8d/L 8dd	.	4r	.	4r	.	4r	.	.	4r	.	.	8D/L	8d\L	f
*	*	*	*	*	*	*	*	*	*	*	*	*	*	*	*	*	*	*16\right	*
.	.	.	16.d/L	.	16.dd/L	.	.	.	.	.	.	.	.	.	.	.	16.D/L	16.d\L	.
*	*	*	*	*	*	*	*	*	*	*	*	*	*	*	*	*	*	*32\right	*
.	.	.	32d/JJk	.	32dd/JJk	.	.	.	.	.	.	.	.	.	.	.	32D/JJk	32d\JJk	.
!	!	!LO:HP:t=for	!	!	!	!	!	!	!	!	!	!	!	!	!	!	!	!	!
8r	.	f	8d/L	.	8dd\L	.	8r	.	8r	.	8r	.	.	8r	.	.	8D/	8d\	.
!	!	!	!	!	!	!	!	!	!	!	!LO:LB:g=original	!	!	!	!	!	!	!	!
8F#\	6	.	8d/J	.	8dd\J	.	8F#\	e-	8d\	e-	8d\	e-	.	8dd\	E-	.	8r	8r	.
!	!	!	!	!	!	!	!LO:LB:g=original	!	!	!	!	!	!	!LO:LB:g=original	!	!	!	!	!
8G\L	6	.	8e/L	.	8ee'\L	.	8G\L	-lei-	4d\	-lei-	4d\	-lei-	.	(8ee\L	-lei-	.	2r	2r	.
8A\	6	.	8f#/	.	8ff#'\	.	8A\J	.	.	.	.	.	.	8ff#\J)	.	.	.	.	.
8B\	6	.	8g/	.	8gg'\	.	8B\	-son	8d\	-son	8d\	-son	.	8gg\	-son	.	.	.	.
8A\J	6	.	8f#/J	.	8ff#'\J	.	8A\	e-	8d\	e-	8d\	e-	.	8ff#\	e-	.	.	.	.
=26	=26	=26	=26	=26	=26	=26	=26	=26	=26	=26	=26	=26	=26	=26	=26	=26	=26	=26	=26
!	!	!	!LO:TX:a:t=SIC&colon;s=8e	!	!	!	!	!	!	!	!	!	!	!	!	!	!	!	!
8G\L	6 4	.	8d/L	.	8ee\L	.	8G\	-lei-	8c#\	-lei-	8a\	-lei-	.	8ee\	-lei-	.	8r	8r	.
!	!	!	!	!	!	!	!	!	!	!	!	!	!	!	!	!	!	!	!LO:HP:t=fo
8F#\J	6	.	16.d/L	.	16.dd\L	.	8F#\	-son	8d\	-son	8a\	-son	.	8dd\	-son	.	16.D/LL	16.d\LL	f
.	.	.	32d/JJk	.	32dd\JJk	.	.	.	.	.	.	.	.	.	.	.	32D/JJk	32d\JJk	.
8r	.	.	8d/L	.	8dd\L	.	8r	.	8r	.	8r	.	.	8r	.	.	8D/	8d\	.
8F#\	6	.	8d/J	.	8dd\J	.	8F#\	e-	8d\	e-	8d\	e-	.	8dd\	e-	.	8r	8r	.
8G\L	6	.	8e/L	.	8ee'\L	.	8G\L	-lei-	4d\	-lei-	4d\	-lei-	.	(8ee\L	-lei-	.	2r	2r	.
8A\	6	.	8f#/	.	8ff#'\	.	8A\J	.	.	.	.	.	.	8ff#\J)	.	.	.	.	.
8B\	6	.	8g/	.	8gg'\	.	8B\	-son	8d\	-son	8d\	-son	.	8gg\	-son	.	.	.	.
8A\J	6	.	8f#/J	.	8ff#'\J	.	8A\	e-	8d\	e-	8d\	e-	.	8ff#\	e-	.	.	.	.
=27	=27	=27	=27	=27	=27	=27	=27	=27	=27	=27	=27	=27	=27	=27	=27	=27	=27	=27	=27
!	!	!	!	!	!	!	!	!	!	!	!	!	!	!LO:TX:a:t=problem&colon;takt 27 skreślony, nad taktem zapis "Podarunek"?	!	!	!	!	!
8G\L	6 4	.	8e/L	.	8ee\L	.	8G\	-lei-	8c#\	-lei-	8a\	-lei-	.	8ee\	-lei-	.	8r	8r	.
!	!	!	!	!	!	!	!	!	!	!	!	!	!	!	!	!	!	!	!LO:HP:t=fo
8F#\J	6	.	16.d/L	.	16.dd\L	.	8F#\	-son	8d\	-son	8a\	-son	.	8dd\	-son	.	16.D/LL	16.d\LL	f
.	.	.	32d/JJk	.	32dd\JJk	.	.	.	.	.	.	.	.	.	.	.	32D/JJk	32d\JJk	.
4r	.	.	8d/L	.	8dd\L	.	4r	.	4r	.	4r	.	.	4r	.	.	8D/	8d\	.
.	.	.	8d/J	.	8dd\J	.	.	.	.	.	.	.	.	.	.	.	8r	8r	.
8B\L	6|	.	8gg#X\L	.	8dd\L 8ddd	.	8B\	Ky-	8e\	Ky-	8g#X\	Ky-	.	8dd\	Ky-	.	2d\	2g#X\	p
8B\	.	.	16.gg#\L	.	16.ddd\L	.	8B\	-ri-	8e\	-ri-	8g#\	-ri-	.	8dd\	-ri-	.	.	.	.
.	.	.	32gg#\JJk	.	32ddd\JJk	.	.	.	.	.	.	.	.	.	.	.	.	.	.
!	!	!	!LO:LB:g=original	!	!	!	!	!	!	!	!	!	!	!	!	!	!	!	!
8B\	.	.	8gg#\L	.	8ddd\L	.	8B\	-e	8e\	-e	8g#\	-e	.	8dd\	-e	.	.	.	.
8B\J	.	.	8gg#\J	.	8ddd\J	.	8B\	e-	8e\	e-	8g#\	e-	.	8dd\	e-	.	.	.	.
*Xtremolo	*	*	*	*	*	*	*	*	*	*	*	*	*	*	*	*	*	*	*
=28	=28	=28	=28	=28	=28	=28	=28	=28	=28	=28	=28	=28	=28	=28	=28	=28	=28	=28	=28
!LO:LB:g=original	!	!	!LO:TX:a:t=SIC&colon;s=16gg#	!	!	!	!	!	!	!	!	!	!	!	!	!	!	!	!
4A\	.	.	16gg\LL	.	16ddd\LL	.	4A\	-lei-	4e\	-lei-	4a\	-lei-	.	4cc#\	-lei-	.	4e\	4a\	.
.	.	.	16aa\	.	16ccc#\	.	.	.	.	.	.	.	.	.	.	.	.	.	.
!	!	!	!LO:TX:a:t=SIC&colon;s=16gg#	!	!	!	!	!	!	!	!	!	!	!	!	!	!	!	!
.	.	.	16gg\	.	16bb\	.	.	.	.	.	.	.	.	.	.	.	.	.	.
.	.	.	16aa\JJ	.	16aa\JJ	.	.	.	.	.	.	.	.	.	.	.	.	.	.
!	!	!	!LO:TX:a:t=problem&colon;powtórka oznaczona skrótem ÷	!	!	!	!	!	!	!	!	!	!	!	!	!	!	!	!
!	!	!	!LO:TX:a:t=SIC&colon;s=16gg#	!	!	!	!	!	!	!	!	!	!	!	!	!	!	!	!
4r	.	.	16gg\LL	.	16gg#X\LL	.	4A\	-son	4e\	-son	4a\	-son	.	4cc#\	-son	.	4r	4r	.
.	.	.	16aa\	.	16aa\	.	.	.	.	.	.	.	.	.	.	.	.	.	.
!	!	!	!LO:TX:a:t=SIC&colon;s=16gg#	!	!	!	!	!	!	!	!	!	!	!	!	!	!	!	!
.	.	.	16gg\	.	16gg#\	.	.	.	.	.	.	.	.	.	.	.	.	.	.
.	.	.	16aa\JJ	.	16aa\JJ	.	.	.	.	.	.	.	.	.	.	.	.	.	.
!	!	!	!	!	!	!	!	!	!	!	!	!	!	!	!	!	!	!LO:TX:a:t=problem&colon;niejednoznaczny zapis dynamika?	!
2c#\	5	.	8b\L 8ee	.	8a\L 8ggn	.	8c#\	{Ky-	8A\	Ky-	8gn\	{Ky-	.	8ee\	Ky-	.	2e\	2gn\	.
.	.	.	16.ee\L	.	16.gg\L	.	8c#\	-ri-	8A\	-ri-	8g\	-ri-	.	8ee\	-ri-	.	.	.	.
.	.	.	32ee\JJk	.	32gg\JJk	.	.	.	.	.	.	.	.	.	.	.	.	.	.
.	.	.	8ee\L	.	8gg\L	.	8c#\	-e	8A\	-e	8g\	-e	.	8ee\	-e	.	.	.	.
.	.	.	8ee\J	.	8gg\J	.	8c#\	e}-	8A\	e-	8g\	e-	.	8ee\	E-	.	.	.	.
=29	=29	=29	=29	=29	=29	=29	=29	=29	=29	=29	=29	=29	=29	=29	=29	=29	=29	=29	=29
*	*	*	*tremolo	*	*tremolo	*	*	*	*	*	*	*	*	*2\right	*	*	*	*	*
8d\L	.	.	16dd\LL	.	16ff#\LL	.	(4d\	-lei-	2d\	-lei-	4f#\	-lei-	.	2dd\	-lei-	.	2.d\	4f#\	.
.	.	.	16dd\	.	16ff#\	.	.	.	.	.	.	.	.	.	.	.	.	.	.
8d\J	.	.	16dd\	.	16ff#\	.	.	.	.	.	.	.	.	.	.	.	.	.	.
.	.	.	16dd\JJ	.	16ff#\JJ	.	.	.	.	.	.	.	.	.	.	.	.	.	.
!	!	!	!	!	!LO:TX:a:t=problem:niejasna wysokość dźwięku	!	!	!	!	!	!	!	!	!	!	!	!	!	!
8B\L	6	.	16dd\LL	.	16gg\LL	.	&(4B\)	.	.	.	4g\	.	.	.	.	.	.	4g\	.
.	.	.	16dd\	.	16gg\	.	.	.	.	.	.	.	.	.	.	.	.	.	.
8B\J	.	.	16dd\	.	16gg\	.	.	.	.	.	.	.	.	.	.	.	.	.	.
.	.	.	16dd\JJ	.	16gg\JJ	.	.	.	.	.	.	.	.	.	.	.	.	.	.
!	!	!	!	!	!LO:LB:g=original	!	!	!	!	!	!	!	!	!	!	!	!	!	!
8F#\L	6	.	16dd\LL	.	16aa\LL	.	4F#\&)	-son	4d\	-son	4a\	-son}	.	4dd\	-son	.	.	4a\	.
.	.	.	16dd\	.	16aa\	.	.	.	.	.	.	.	.	.	.	.	.	.	.
8F#\	.	.	16dd\	.	16aa\	.	.	.	.	.	.	.	.	.	.	.	.	.	.
.	.	.	16dd\JJ	.	16aa\JJ	.	.	.	.	.	.	.	.	.	.	.	.	.	.
8G\	.	.	16dd\LL	.	16bb\LL	.	4G\	e-	4g\	e-	4b\	e-	.	4dd\	e-	.	4d\	4b\	.
.	.	.	16dd\	.	16bb\	.	.	.	.	.	.	.	.	.	.	.	.	.	.
8G\J	.	.	16dd\	.	16bb\	.	.	.	.	.	.	.	.	.	.	.	.	.	.
.	.	.	16dd\JJ	.	16bb\JJ	.	.	.	.	.	.	.	.	.	.	.	.	.	.
*	*	*	*	*	*Xtremolo	*	*	*	*	*	*	*	*	*	*	*	*	*	*
=30	=30	=30	=30	=30	=30	=30	=30	=30	=30	=30	=30	=30	=30	=30	=30	=30	=30	=30	=30
!LO:TX:a:t=problem&colon;mixed beam	!	!	!	!	!	!	!	!	!	!	!	!	!	!	!	!	!	!	!LO:HP:t=for
!	!	!	!	!	!	!	!	!	!LO:LB:g=original	!	!	!	!	!	!	!	!	!	!
8A\L	6 4	.	16dd\LL 16ff#	.	16ff#\LL	.	4A\	-lei-	(4f#\	-lei-	2a\	-lei-	.	4dd\	-lei-	.	4d\	4f#\	f
.	.	.	16dd\ 16ff#	.	16ddd\	.	.	.	.	.	.	.	.	.	.	.	.	.	.
8A\	.	.	16dd\ 16ff#	.	16dd\	.	.	.	.	.	.	.	.	.	.	.	.	.	.
.	.	.	16dd\JJ 16ff#	.	16ddd\JJ	.	.	.	.	.	.	.	.	.	.	.	.	.	.
8AA/	5 3	.	16cc#\LL 16ee	.	16ee\LL	.	4AA/	.	4e\)	.	.	.	.	4cc#\	.	.	4A/	4e\	.
.	.	.	16cc#\ 16ee	.	16ccc#\	.	.	.	.	.	.	.	.	.	.	.	.	.	.
8AA/J	.	.	16cc#\ 16ee	.	16ee\	.	.	.	.	.	.	.	.	.	.	.	.	.	.
.	.	.	16cc#\JJ 16ee	.	16ccc#\JJ	.	.	.	.	.	.	.	.	.	.	.	.	.	.
4D\	.	.	4dd\ 4ff#	.	4ddd\	.	4D\	-son	4f#\	-son	4a\	-son	.	4dd\	-son	.	4F#/	4d\	.
4r	.	.	4r	.	4r	.	4r	.	4r	.	4r	.	.	4r	.	.	4r	4r	.
*clefC4	*	*	*Xtremolo	*	*	*	*	*	*	*	*	*	*	*	*	*	*	*	*
=31	=31	=31	=31	=31	=31	=31	=31	=31	=31	=31	=31	=31	=31	=31	=31	=31	=31	=31	=31
!LO:TX:a:t=problem&colon;znaki przykluczowe	!	!	!	!	!	!	!	!	!	!	!	!	!	!	!	!	!	!	!
!LO:TX:a:t=Solo	!	!	!	!	!	!	!LO:TX:a:t=problem&colon;pauzy oznaczone "/" adnotacja "16."	!	!	!	!LO:TX:a:t=Solo	!	!	!LO:TX:a:t=Solo	!	!	!LO:TX:a:t=problem&colon;pauzy / adnotacja "16"	!LO:TX:a:t=problem&colon;pauzy / adnotacja "16"	!
4B\	.	p	4b/	p	4dd\	p	1r	.	4B\	Chri-	4f#\	Chri-	.	4dd\	X-	.	1r	1r	.
4c#\	6|	.	4a#X/	.	4cc#\	.	.	.	4c#\	.	4e\	.	.	4cc#\	-ste	.	.	.	.
8d\L	6	.	8.f#/L	.	8.b\L	.	.	.	8.d\L	.	8.f#\L	.	.	(8.b\L	X-	.	.	.	.
8e\	6	.	.	.	.	.	.	.	.	.	.	.	.	.	.	.	.	.	.
.	.	.	16g/K	.	16cc#\K	.	.	.	16e\Jk	.	16g\Jk	.	.	16cc#\Jk)	.	.	.	.	.
!	!	!	!	!	!	!	!	!	!	!	!LO:LB:g=original	!	!	!	!	!	!	!	!
8d\	6	.	8f#/	.	8b\	.	.	.	8d\	-ste	8f#\	-ste	.	8b\	-ste	.	.	.	.
!	!	!	!	!	!	!	!	!	!	!	!	!	!	!LO:LB:g=original	!	!	!	!	!
8c#\J	6|	.	8e/J	.	8a#X\J	.	.	.	8c#\	e-	8e\	e-	.	8a#\	e-	.	.	.	.
=32	=32	=32	=32	=32	=32	=32	=32	=32	=32	=32	=32	=32	=32	=32	=32	=32	=32	=32	=32
4d\	6	.	4f#/	.	8.b\L	.	1r	.	4d\	-lei-	2f#\	-lei-	.	4b\	-lei-	.	1r	1r	.
.	.	.	.	.	16cc#\Jk	.	.	.	.	.	.	.	.	.	.	.	.	.	.
4A#X\	6	.	4g/	.	4cc#t\	.	.	.	4A#X\	.	.	.	.	4cc#\	.	.	.	.	.
4B\	.	.	4f#/	.	8dd\L	.	.	.	4B\	-son	4f#\	-son	.	8dd\L	.	.	.	.	.
.	.	.	.	.	16cc#\L	.	.	.	.	.	.	.	.	16cc#\L	.	.	.	.	.
.	.	.	.	.	16dd\JJ	.	.	.	.	.	.	.	.	16dd\JJ	.	.	.	.	.
8r	.	.	8cc#\L	.	8ee\L	.	.	.	8r	.	8r	.	.	8ee\	-son	.	.	.	.
8e\	.	.	8b\J	.	8dd\J	.	.	.	8e\	e-	8b\	e-	.	8dd\	e-	.	.	.	.
=33	=33	=33	=33	=33	=33	=33	=33	=33	=33	=33	=33	=33	=33	=33	=33	=33	=33	=33	=33
8.f#\L	6 4	.	8b\L	.	8dd\L	.	1r	.	8f#\	-lei-	8b\	-lei-	.	8dd\	-lei-	.	1r	1r	.
.	.	.	8a#X\J	.	8cc#\J	.	.	.	8F#/	-son	8a#X\	-son	.	8cc#\	-son	.	.	.	.
16e\K	5 #	.	.	.	.	.	.	.	.	.	.	.	.	.	.	.	.	.	.
8d\	.	.	4r	.	4r	.	.	.	4r	.	4r	.	.	4r	.	.	.	.	.
8c#\J	.	.	.	.	.	.	.	.	.	.	.	.	.	.	.	.	.	.	.
4B\	.	.	4b\	.	4dd\	.	.	.	(4B\	Chri-	4f#\	e-	.	(4dd\	X-	.	.	.	.
4c#\	6|	.	4a#\	.	4cc#\	.	.	.	4c#\)	.	4e\	-lei-	.	4cc#\)	.	.	.	.	.
=34	=34	=34	=34	=34	=34	=34	=34	=34	=34	=34	=34	=34	=34	=34	=34	=34	=34	=34	=34
4.d\	6	.	4f#/	.	8.b\L	.	1r	.	4d\	-ste	4f#\	-son	.	8.b\	-ste	.	1r	1r	.
.	.	.	.	.	16ccn\K	.	.	.	.	.	.	.	.	16ccny\	e-	.	.	.	.
.	.	.	8r	.	8b\	.	.	.	8r	.	8r	.	.	8b\L	-lei-	.	.	.	.
8d#X\	5	.	8f#/	.	8a\J	.	.	.	8d#X\	e-	8f#\	{e-	.	8a\J	.	.	.	.	.
!LO:TX:a:t=problem&colon;mixed beam	!	!	!	!	!	!	!	!	!	!	!	!	!	!	!	!	!	!	!
.	.	.	.	.	8qqa/	.	.	.	.	.	.	.	.	8qqa/	.	.	.	.	.
8e\L	4	.	4B/	.	4g\	.	.	.	8e\	-lei-	8B/	-lei-	.	4g\	-son	.	.	.	.
.	3	.	.	.	.	.	.	.	.	.	.	.	.	.	.	.	.	.	.
8E/	.	.	.	.	.	.	.	.	8E/	-son	8B/	-son}	.	.	.	.	.	.	.
8e\	.	.	4r	.	8r	.	.	.	4r	.	4r	.	.	8r	.	.	.	.	.
8dn\J	4|	.	.	.	8g#X/	.	.	.	.	.	.	.	.	8g#X\	e-	.	.	.	.
=35	=35	=35	=35	=35	=35	=35	=35	=35	=35	=35	=35	=35	=35	=35	=35	=35	=35	=35	=35
4.c#\	6	.	4e/	.	8.a\L	.	1r	.	4c#\	e-	4e\	{e-	.	8.a\L	-lei-	.	1r	1r	.
.	.	.	.	.	16b\K	.	.	.	.	.	.	.	.	16b\K	.	.	.	.	.
.	.	.	8r	.	8a\	.	.	.	4A\	-lei-	4e\	-lei-	.	8a\	.	.	.	.	.
8A\	7	.	8e/	.	8gn\J	.	.	.	.	.	.	.	.	8gn\J	.	.	.	.	.
!LO:TX:a:t=problem&colon;mixed beam	!	!	!	!	!	!	!	!	!	!	!	!	!	!	!	!	!	!	!
.	.	.	.	.	4qqg/	.	.	.	.	.	.	.	.	8qqg/	.	.	.	.	.
!LO:LB:g=original	!	!	!LO:LB:g=original	!	!	!	!	!	!	!	!	!	!	!	!	!	!	!	!
8d\L	7	.	4A/	.	4f#/	.	.	.	4d\	-son	4d\	-son}	.	4f#/	-son	.	.	.	.
.	3	.	.	.	.	.	.	.	.	.	.	.	.	.	.	.	.	.	.
8D/	.	.	.	.	.	.	.	.	.	.	.	.	.	.	.	.	.	.	.
8d\J	.	.	8r	.	8r	.	.	.	4r	.	8r	.	.	8r	.	.	.	.	.
8r	.	.	8a/	.	8a/	.	.	.	.	.	8a\	e-	.	8a\	E-	.	.	.	.
=36	=36	=36	=36	=36	=36	=36	=36	=36	=36	=36	=36	=36	=36	=36	=36	=36	=36	=36	=36
!	!	!	!	!	!LO:LB:g=original	!	!	!	!LO:TX:a:t=problem&colon;pauzy 00r adnotacja "4"	!	!	!	!	!	!	!	!	!	!
8d\L	6	.	4f#/	.	4dd\	.	1r	.	1r	.	4f#\	-lei-	.	4dd\	-lei-	.	1r	1r	.
8d\	.	.	.	.	.	.	.	.	.	.	.	.	.	.	.	.	.	.	.
8d\	4 2	.	4g/	.	4ee\	.	.	.	.	.	4g\	.	.	4ee\	.	.	.	.	.
8d\J	.	.	.	.	.	.	.	.	.	.	.	.	.	.	.	.	.	.	.
8d\L	5 3	.	4a/	.	4ff#\	.	.	.	.	.	4a\	.	.	4ff#\	.	.	.	.	.
8d\	.	.	.	.	.	.	.	.	.	.	.	.	.	.	.	.	.	.	.
!	!	!	!LO:TX:a:t=problem&colon;niejednoznaczny zapis łuku	!	!	!	!	!	!	!	!	!	!	!	!	!	!	!	!
.	.	.	8qqcc#/	.	8qqaa/	.	.	.	.	.	.	.	.	8qqaa/	.	.	.	.	.
8d\	6 4	.	(8b/L	.	8gg\L	.	.	.	.	.	8b\L	.	.	8gg\L	.	.	.	.	.
8d\J	4 2	.	16a/L	.	16ff#\L	.	.	.	.	.	16a\L	.	.	16ff#\L	.	.	.	.	.
.	.	.	16g/JJ)	.	16ee\JJ	.	.	.	.	.	16g\JJ	.	.	16ee\JJ	.	.	.	.	.
=37	=37	=37	=37	=37	=37	=37	=37	=37	=37	=37	=37	=37	=37	=37	=37	=37	=37	=37	=37
8d\L	3	.	8g/L	.	(8ee\L	.	1r	.	1r	.	(8g\L	-son	.	8ee\L	-son	.	1r	1r	.
8d\	.	.	8f#/J	.	8dd\J)	.	.	.	.	.	8f#\J)	.	.	8dd\J	.	.	.	.	.
8d\	4 2	.	8r	.	8r	.	.	.	.	.	8r	.	.	8r	.	.	.	.	.
8d\J	.	.	8g/	.	8ee\	.	.	.	.	.	8g\	e-	.	8ee\	e-	.	.	.	.
8d\L	5 3	.	8g/L	.	(8ee\L	.	.	.	.	.	8g\L	-lei-	.	8ee\L	-lei-	.	.	.	.
8d\	.	.	8a/J	.	8ff#\J)	.	.	.	.	.	8a\J	.	.	8ff#\J	.	.	.	.	.
.	.	.	8qqcc#/	.	8qqaa/	.	.	.	.	.	.	.	.	8qqaa/	.	.	.	.	.
8d\	6 4	.	8b\L	.	8gg\L	.	.	.	.	.	8b\L	.	.	8gg\L	.	.	.	.	.
8d\J	4 2	.	16a\L	.	16ff#\L	.	.	.	.	.	16a\L	.	.	16ff#\L	.	.	.	.	.
.	.	.	16g\JJ	.	16ee\JJ	.	.	.	.	.	16g\JJ	.	.	16ee\JJ	.	.	.	.	.
=38	=38	=38	=38	=38	=38	=38	=38	=38	=38	=38	=38	=38	=38	=38	=38	=38	=38	=38	=38
!	!	!	!	!	!	!	!	!	!	!	!LO:LB:g=original	!	!	!	!	!	!	!	!
8d\L	.	.	(8g/L	.	(8ee\L	.	1r	.	1r	.	8g\L	-son	.	8ee\L	-son	.	1r	1r	.
8d\	.	.	8f#/J)	.	8dd\J)	.	.	.	.	.	8f#\J	.	.	8dd\J	.	.	.	.	.
8d\	.	.	8r	.	8r	.	.	.	.	.	8r	.	.	8r	.	.	.	.	.
8d\J	8 6	.	8a/	.	8ff#`\	.	.	.	.	.	8a\	e-	.	8ff#\	e-	.	.	.	.
!	!	!	!	!	!LO:N:vis=16	!	!	!	!	!	!	!	!	!	!	!	!	!	!
!	!	!	!	!	!	!	!	!	!	!	!	!	!	!LO:LB:g=original	!	!	!	!	!
8A\L	7 5	.	8a/L	.	(8ff#\L	.	.	.	.	.	(8a\L	-lei-	.	8ff#\L	-lei-	.	.	.	.
!	!	!	!	!	!LO:N:vis=16	!	!	!	!	!	!	!	!	!	!	!	!	!	!
8A\	.	.	8g/J	.	8ee\J)	.	.	.	.	.	8g\J)	.	.	8ee\J	.	.	.	.	.
8A\	.	.	8r	.	8r	.	.	.	.	.	8r	.	.	8r	.	.	.	.	.
8A\J	.	.	8g/	.	8ee\	.	.	.	.	.	8g\	.	.	8ee\	.	.	.	.	.
=39	=39	=39	=39	=39	=39	=39	=39	=39	=39	=39	=39	=39	=39	=39	=39	=39	=39	=39	=39
!LO:N:vis=8.	!	!	!	!	!	!	!	!	!	!	!	!	!	!	!	!	!	!	!
8B\L	6 4	.	8g/L	.	8ee\L	.	1r	.	1r	.	(8g\L	.	.	8ee\L	.	.	1r	1r	.
8B\	5 3	.	8f#/J	.	8dd\J	.	.	.	.	.	8f#\J)	.	.	8dd\J	.	.	.	.	.
8B\	.	.	8r	.	8r	.	.	.	.	.	8r	.	.	8r	.	.	.	.	.
8G\J	.	.	16g/LL	.	16b/LL	.	.	.	.	.	16g\LL	.	.	16b\LL	.	.	.	.	.
.	.	.	16e/JJ	.	16g/JJ	.	.	.	.	.	16e\JJ	.	.	16g\JJ	.	.	.	.	.
8A\L	6 4	.	4d/	.	4f#/	.	.	.	.	.	4d\	.	.	4f#\	.	.	.	.	.
8A\	.	.	.	.	.	.	.	.	.	.	.	.	.	.	.	.	.	.	.
8A\	5 3	.	4c#t/	.	4eT/	.	.	.	.	.	4c#\	.	.	4e\	.	.	.	.	.
8A\J	.	.	.	.	.	.	.	.	.	.	.	.	.	.	.	.	.	.	.
=40	=40	=40	=40	=40	=40	=40	=40	=40	=40	=40	=40	=40	=40	=40	=40	=40	=40	=40	=40
!LO:TX:a:t=problem:mixed beam	!	!	!	!	!	!	!	!	!	!	!	!	!	!	!	!	!	!	!
8D/L	.	.	4d/	.	4d/	.	1r	.	2r	.	4d\	-son	.	4d/	-son	.	1r	1r	.
16d\L	.	.	.	.	.	.	.	.	.	.	.	.	.	.	.	.	.	.	.
16e\JJ	.	.	.	.	.	.	.	.	.	.	.	.	.	.	.	.	.	.	.
8d\L	.	.	4r	.	4r	.	.	.	.	.	4r	.	.	4r	.	.	.	.	.
8c#\J	.	.	.	.	.	.	.	.	.	.	.	.	.	.	.	.	.	.	.
!	!	!	!	!	!	!	!	!	!LO:TX:a:t=problem&colon;niejednoznaczny zapis łuku	!	!	!	!	!	!	!	!	!	!
4B\	.	.	4b\	.	4dd\	.	.	.	(4B\	Chri-	4.f#\	Chri-	.	(4dd\	X-	.	.	.	.
4c#\	6|	.	4a#X\	.	4cc#\	.	.	.	4c#\)	.	.	.	.	4cc#\)	.	.	.	.	.
.	.	.	.	.	.	.	.	.	.	.	8e\	.	.	.	.	.	.	.	.
=41	=41	=41	=41	=41	=41	=41	=41	=41	=41	=41	=41	=41	=41	=41	=41	=41	=41	=41	=41
!	!	!	!	!	!	!	!	!	!LO:LB:g=original	!	!LO:TX:a:t=problem&colon;tekst słowny błędnie	!	!	!	!	!	!	!	!
8.d\L	6	.	8.f#/L	.	8.b\L	.	1r	.	8.d\L	.	(8.f#\L	-te	.	8.b\L	-ste	.	1r	1r	.
!	!	!	!	!	!	!	!	!	!	!	!	!	!	!LO:TX:a:t=problem&colon;niejednoznaczny zapis łuku	!	!	!	!	!
16e\K	6	.	16g/K	.	16cc#\K	.	.	.	16e\Jk	.	16g\Jk)	.	.	(16cc#\K	.	.	.	.	.
8d\	6	.	8f#/	.	8b\	.	.	.	8d\	-ste	8f#\	ste	.	8b\J)	.	.	.	.	.
8c#\J	6|	.	8e/J	.	8a#X\J	.	.	.	8c#\	e-	8e\	e-	.	8a#X\	e-	.	.	.	.
4d\	6	.	4f#/	.	8b\L	.	.	.	(4d\	-lei-	2f#\	-lei-	.	4b\	-lei	.	.	.	.
.	.	.	.	.	8cc#\J	.	.	.	.	.	.	.	.	.	.	.	.	.	.
4A#X\	6	.	4f#t/	.	4cc#t\	.	.	.	4A#X\)	.	.	.	.	4cc#\	.	.	.	.	.
=42	=42	=42	=42	=42	=42	=42	=42	=42	=42	=42	=42	=42	=42	=42	=42	=42	=42	=42	=42
!LO:LB:g=original	!	!	!	!	!	!	!	!	!	!	!	!	!	!	!	!	!	!	!
4B\	.	.	4f#/	.	8dd\L	.	1r	.	4B\	-son	4f#\	-son	.	8dd\L	.	.	1r	1r	.
.	.	.	.	.	16cc#\L	.	.	.	.	.	.	.	.	16cc#\L	.	.	.	.	.
.	.	.	.	.	16dd\JJ	.	.	.	.	.	.	.	.	16dd\JJ	.	.	.	.	.
8r	.	.	8cc#\L	.	8ee\L	.	.	.	8r	.	8r	.	.	8ee\	.	.	.	.	.
8e\	7	.	8b\J	.	8dd\J	.	.	.	8e\	e-	8b\	e-	.	8dd\	.	.	.	.	.
!LO:TX:a:t=problem&colon;mixed beam	!	!	!	!	!	!	!	!	!	!	!	!	!	!	!	!	!	!	!
!	!	!	!	!	!LO:LB:g=original	!	!	!	!	!	!	!	!	!	!	!	!	!	!
.	.	.	.	.	8qqee/	.	.	.	.	.	.	.	.	.	.	.	.	.	.
8f#\L	6 4	.	8b\L	.	8dd\L	.	.	.	8f#\	-lei-	8b\	-lei-	.	8dd\	.	.	.	.	.
8F#/	5 #	.	8a#X\J	.	8cc#\J	.	.	.	8F#/	-son	8a#X\	-son	.	8cc#\	.	.	.	.	.
!	!	!	!LO:TX:a:t=problem&colon;brak pauzy	!	!	!	!	!	!	!	!	!	!	!	!	!	!	!	!
8f#\J	.	.	8ryy	.	8r	.	.	.	8r	.	8r	.	.	8r	.	.	.	.	.
.	.	.	8qqa#/	.	.	.	.	.	.	.	.	.	.	.	.	.	.	.	.
8r	.	.	8f#/	.	8f#/	.	.	.	8f#\	e-	8f#\	e-	.	8f#/	e-	.	.	.	.
=43	=43	=43	=43	=43	=43	=43	=43	=43	=43	=43	=43	=43	=43	=43	=43	=43	=43	=43	=43
!	!	!	!LO:LB:g=original	!	!	!	!	!	!	!	!	!	!	!	!	!	!	!	!
8f#\L	6 4	.	4.dd\	.	4.ff#\	.	1r	.	2f#\	-lei-	4.dd\	-lei-	.	4.ff#\	-lei-	.	1r	1r	.
8f#\	.	.	.	.	.	.	.	.	.	.	.	.	.	.	.	.	.	.	.
8f#\	.	.	.	.	.	.	.	.	.	.	.	.	.	.	.	.	.	.	.
8f#\J	.	.	16cc#\LL	.	16ee\LL	.	.	.	.	.	16cc#\LL	.	.	16ee\LL	.	.	.	.	.
.	.	.	16b\JJ	.	16dd\JJ	.	.	.	.	.	16b\JJ	.	.	16dd\JJ	.	.	.	.	.
8f#\L	6 4	.	(8b\L	.	(8dd\L	.	.	.	4F#/	-son	8b\L	-son	.	8dd\L	-son	.	.	.	.
8f#\	5 #	.	8a#X\J)	.	8cc#\J)	.	.	.	.	.	8a#X\J	.	.	8cc#\J	.	.	.	.	.
8f#\	.	.	8r	.	8r	.	.	.	4r	.	4r	.	.	8r	.	.	.	.	.
!	!	!	!LO:TX:a:t=SIC&colon;s=8b	!	!	!	!	!	!	!	!	!	!	!	!	!	!	!	!
8f#\J	.	.	8a#\	.	8b\	.	.	.	.	.	.	.	.	8cc#\	e-	.	.	.	.
=44	=44	=44	=44	=44	=44	=44	=44	=44	=44	=44	=44	=44	=44	=44	=44	=44	=44	=44	=44
8e\L	6	.	8cc#\L	.	4.ee\	.	1r	.	4e\	e-	4.g\	e-	.	4.ee\	-lei-	.	1r	1r	.
8e\	.	.	8g\J	.	.	.	.	.	.	.	.	.	.	.	.	.	.	.	.
8e\	.	.	8r	.	.	.	.	.	4e\	-lei-	.	.	.	.	.	.	.	.	.
!	!	!	!	!	!LO:TX:a:t=problem&colon;triola oznaczona liczbą i łukiem	!	!	!	!	!	!	!	!	!LO:TX:a:t=problem&colon;triola nieoznaczona liczbą / łukiem	!	!	!	!	!
*	*	*	*	*	*	*	*	*	*	*	*Xtuplet	*	*	*Xtuplet	*	*	*	*	*
8e\J	5	.	16e/LL	.	24dd\LL	.	.	.	.	.	24f#\LL	-lei-	.	24dd\LL	.	.	.	.	.
.	.	.	.	.	24cc#\	.	.	.	.	.	24e\	.	.	24cc#\	.	.	.	.	.
.	.	.	16d/JJ	.	.	.	.	.	.	.	.	.	.	.	.	.	.	.	.
.	.	.	.	.	24b\JJ	.	.	.	.	.	24d\JJ	.	.	24b\JJ	.	.	.	.	.
!LO:TX:a:t=problem:mixed beam	!	!	!	!	!	!	!	!	!	!	!	!	!	!	!	!	!	!	!
!	!	!	!	!	!	!	!	!	!	!	!LO:LB:g=original	!	!	!	!	!	!	!	!
.	.	.	8qqd/	.	8qqb/	.	.	.	.	.	.	.	.	8qqb/	.	.	.	.	.
8f#\L	#	.	4c#/	.	4a#X/	.	.	.	4f#\	-son	4c#\	-son	.	4a#X\	-son	.	.	.	.
8F#/	.	.	.	.	.	.	.	.	.	.	.	.	.	.	.	.	.	.	.
8f#\J	.	.	4r	.	8r	.	.	.	4r	.	4r	.	.	8r	.	.	.	.	.
8r	.	.	.	.	8f#/	.	.	.	.	.	.	.	.	8f#/	e-	.	.	.	.
=45	=45	=45	=45	=45	=45	=45	=45	=45	=45	=45	=45	=45	=45	=45	=45	=45	=45	=45	=45
4d\	6	.	4f#/	.	4b\	.	1r	.	4d\	e-	4f#\	e-	.	4b\	-lei-	.	1r	1r	.
4A#X\	6	.	4f#/	.	8.cc#t\L	.	.	.	4A#X\	-lei-	4f#\	-lei-	.	4cc#t\	.	.	.	.	.
!	!	!	!	!	!LO:N:vis=16	!	!	!	!	!	!	!	!	!	!	!	!	!	!
.	.	.	.	.	32b\LL	.	.	.	.	.	.	.	.	.	.	.	.	.	.
.	.	.	.	.	32cc#\JJJ	.	.	.	.	.	.	.	.	.	.	.	.	.	.
4B\	.	.	4f#/	.	4dd\	.	.	.	4B\	-son	4f#\	-son	.	4dd\	-son	.	.	.	.
8r	.	.	8r	.	8r	.	.	.	8r	.	8r	.	.	8r	.	.	.	.	.
!	!	!	!	!	!	!	!	!	!	!	!	!	!	!LO:LB:g=original	!	!	!	!	!
8c#\	6|	.	8a#X/	.	8ee\	.	.	.	8c#\	e-	8a#X\	e-	.	8ee\	e-	.	.	.	.
=46	=46	=46	=46	=46	=46	=46	=46	=46	=46	=46	=46	=46	=46	=46	=46	=46	=46	=46	=46
4d\	.	.	4b\	.	8ff#\L	.	1r	.	4d\	-lei-	4b\	-lei-	.	8ff#\L	-lei-	.	1r	1r	.
.	.	.	.	.	16ee\L	.	.	.	.	.	.	.	.	16ee\L	.	.	.	.	.
.	.	.	.	.	16ff#\JJ	.	.	.	.	.	.	.	.	16ff#\JJ	.	.	.	.	.
.	.	.	.	.	8qqaa/	.	.	.	.	.	.	.	.	.	.	.	.	.	.
8r	.	.	8r	.	8gg\L	.	.	.	8e\	-son	8b\	-son	.	8gg\	-son	.	.	.	.
8e\	.	.	8cc#\	.	16ff#\L	.	.	.	8e\	e-	8cc#\	e-	.	16ff#\LL	.	.	.	.	.
.	.	.	.	.	16ee\JJ	.	.	.	.	.	.	.	.	16ee\JJ	.	.	.	.	.
4f#\	6 4	.	4b\	.	4dd\	.	.	.	(4f#\	-lei-	(4b\	-lei-	.	4dd\	e-	.	.	.	.
!	!	!	!	!	!	!	!	!	!	!	!LO:N:vis=8	!	!	!	!	!	!	!	!
4F#/	5 #	.	4a#X\	.	4cc#t\	.	.	.	4F#/)	.	4a#X\)	.	.	4cc#t\	-lei-	.	.	.	.
=47	=47	=47	=47	=47	=47	=47	=47	=47	=47	=47	=47	=47	=47	=47	=47	=47	=47	=47	=47
!	!	!	!	!	!	!	!LO:LB:g=original	!	!	!	!	!	!	!	!	!	!	!LO:LB:g=original	!
4B\	.	.	4b\	.	4b\	.	2r	.	4B\	-son	4b\	-son	.	4b\	-son	.	2r	2r	.
*clefF4	*	*	*	*	*	*	*	*	*	*	*	*	*	*	*	*	*	*	*
!	!	!LO:HP:t=for	!	!	!	!	!	!	!	!	!	!	!	!	!	!	!	!	!
!LO:TX:a:t=problem:znaki przykluczowe	!	!	!	!	!	!	!	!	!	!	!	!	!	!	!	!	!	!	!
!LO:TX:a:t=Tutti	!	!	!	!	!LO:HP:t=for	!	!	!	!	!	!	!	!	!	!	!	!	!	!
!	!	!	!	!LO:HP:t=for	!	!	!	!	!	!	!	!	!	!	!	!	!	!	!
8r	.	f	4r	f	4r	f	.	.	4r	.	4r	.	.	4r	.	.	.	.	.
*32\right	*	*	*	*	*	*	*	*	*	*	*	*	*	*	*	*	*	*	*
32A\LLL	.	.	.	.	.	.	.	.	.	.	.	.	.	.	.	.	.	.	.
32G\	.	.	.	.	.	.	.	.	.	.	.	.	.	.	.	.	.	.	.
32F#\	.	.	.	.	.	.	.	.	.	.	.	.	.	.	.	.	.	.	.
32E\JJJ	.	.	.	.	.	.	.	.	.	.	.	.	.	.	.	.	.	.	.
!	!	!	!	!	!	!	!	!	!	!	!	!	!	!LO:TX:a:t=Tutti	!	!	!	!	!LO:HP:t=for
4D\	.	.	4A/ 4f# 4dd	.	4A/ 4f# 4dd	.	4d\	Ky-	4f#\	Ky-	4a\	Ky-	.	4dd\	Ky-	.	4d\	4f#\	f
4A\	.	.	4A/ 4e 4cc#	.	4A/ 4e 4cc#	.	4A\	-ri-	4e\	-ri-	4a\	-ri-	.	4cc#\	-ri-	.	4A/	4e\	.
=48	=48	=48	=48	=48	=48	=48	=48	=48	=48	=48	=48	=48	=48	=48	=48	=48	=48	=48	=48
4D\	.	.	4A/ 4f# 4dd	.	4A/ 4f# 4dd	.	4D\	-e	4f#\	-e	4a\	-e	.	4dd\	-e	.	4d\	4f#\	.
4r	.	.	8r	.	8r	.	4r	.	8r	.	4r	.	.	8r	.	.	4r	4r	.
!	!	!	!	!	!	!	!	!	!LO:LB:g=original	!	!	!	!	!	!	!	!	!	!
.	.	.	8cc#\	p	8ee\	p	.	.	8c#\	e-	.	.	.	8ee\	e-	.	.	.	.
4r	.	.	8dd\L	.	8ff#\L	.	4r	.	8d\L	-lei-	4r	.	.	8ff#\L	-lei-	.	4r	4r	.
.	.	.	16ee\L	.	16gg\L	.	.	.	16e\L	.	.	.	.	(16gg\L	.	.	.	.	.
.	.	.	16cc#\JJ	.	16ee\JJ	.	.	.	16c#\JJ	.	.	.	.	16ee\JJ)	.	.	.	.	.
!	!	!	!LO:TX:a:t=problem:mixed beam	!	!	!	!	!	!	!	!	!	!	!	!	!	!	!	!
!	!	!	!	!LO:HP:t=for	!	!LO:HP:t=for	!	!	!	!	!	!	!	!	!	!	!	!	!
8r	.	.	8dd\L	f	8ff#\L	f	8r	.	8d\	-son	8r	.	.	8ff#\	-son	.	8r	8r	.
8B\	.	.	8f#/J	.	8dd\J	.	8B\	e-	8d\	e-	8f#\	e-	.	8dd\	e-	.	8d\	8f#\	.
=49	=49	=49	=49	=49	=49	=49	=49	=49	=49	=49	=49	=49	=49	=49	=49	=49	=49	=49	=49
!	!	!	!	!	!LO:LB:g=original	!	!	!	!	!	!	!	!	!	!	!	!LO:LB:g=original	!	!
!LO:LB:g=original	!	!	!	!	!	!	!	!	!	!	!	!	!	!	!	!	!LO:TX:a:t=problem:mixed beam	!	!
8G\L	6	.	8g/L	.	8ee\L	.	8G\L	-lei-	4e\	-lei-	(8b\L	-lei-	.	8ee\L	-lei-	.	8e\L	8g\L	.
8A\J	.	.	8e/	.	8cc#\	.	8A\J	.	.	.	8a\J)	.	.	8cc#\J	.	.	8A/J	8e\J	.
4D\	.	.	8f#/	.	8dd\	.	4D\	-son	8f#\	-son	4a\	-son	.	8dd\	-son	.	4d\	4f#\	.
.	.	.	8cc#/J	.	8ee\J	.	.	.	8c#\	e-	.	.	.	8ee\	e-	.	.	.	.
4r	.	.	8dd\L	p	8ff#\L	p	4r	.	8d\L	-lei-	4r	.	.	8ff#\L	-lei-	.	4r	4r	.
.	.	.	16ee\L	.	16gg\L	.	.	.	16e\L	.	.	.	.	(16gg\L	.	.	.	.	.
.	.	.	16cc#\JJ	.	16ee\JJ	.	.	.	16c#\JJ	.	.	.	.	16ee\JJ)	.	.	.	.	.
!	!	!	!LO:TX:a:t=problem&colon;mixed beam	!	!	!	!	!	!	!	!	!	!	!	!	!	!	!	!
!	!	!	!	!LO:HP:t=for	!	!LO:HP:t=for	!	!	!	!	!	!	!	!	!	!	!	!	!
8r	.	.	8dd\L	f	8ff#\L	f	8r	.	8d\	-son	8r	.	.	8ff#\	-son	.	8r	8r	.
8B\	5	.	8f#/J	.	8dd\J	.	8B\	{e-	8d\	e-	8f#\	e-	.	8dd\	e-	.	8d\	8f#\	.
=50	=50	=50	=50	=50	=50	=50	=50	=50	=50	=50	=50	=50	=50	=50	=50	=50	=50	=50	=50
!	!	!	!LO:LB:g=original	!	!	!	!	!	!	!	!	!	!	!	!	!	!LO:TX:a:t=problem:mixed beam	!	!
8G\L	6	.	8g/L	.	8ee\L	.	8G\L	-lei-	4e\	-lei-	8b\L	-lei-	.	8ee\L	-lei-	.	8e\L	8g\L	.
8A\J	.	.	8e/J	.	8cc#\J	.	8A\J	.	.	.	8a\J	.	.	8cc#\J	.	.	8c#/J	8e\J	.
4D\	.	.	8f#\L	.	8dd\L	.	4D/	-son}	4f#\	-son	4a\	-son	.	4dd\	-son	.	4d\	4f#\	.
!	!	!	!	!	!LO:TX:a:t=problem&colon;niejednoznaczny zapis łuku	!	!	!	!	!	!	!	!	!	!	!	!	!	!
.	.	.	(32dd\LL	.	(32dd\LL	.	.	.	.	.	.	.	.	.	.	.	.	.	.
.	.	.	32ee\	.	32ee\	.	.	.	.	.	.	.	.	.	.	.	.	.	.
.	.	.	32ff#\	.	32ff#\	.	.	.	.	.	.	.	.	.	.	.	.	.	.
.	.	.	32gg\JJJ)	.	32gg\JJJ)	.	.	.	.	.	.	.	.	.	.	.	.	.	.
!	!	!	!	!	!LO:TX:a:t=problem&colon;niejednoznaczny zapis - staccato / liczba nut (5)	!	!	!	!	!	!	!	!	!	!	!	!	!	!
*tremolo	*	*	*tremolo	*	*tremolo	*	*	*	*	*	*	*	*	*	*	*	*	*	*
8C#/L	6	.	16aa\LL	.	16aa\LL	.	8C#/	Ky-	8e\	Ky-	8a\	Ky-	.	8ee\	Ky-	.	8A/L	8e\L	.
.	.	.	16aa\	.	16aa\	.	.	.	.	.	.	.	.	.	.	.	.	.	.
8C#/	.	.	16aa\	.	16aa\	.	8C#/	-ri-	8e\	-ri-	8a\	-ri-	.	8ee\	-ri-	.	8A/	8e\	.
.	.	.	16aa\JJ	.	16aa\JJ	.	.	.	.	.	.	.	.	.	.	.	.	.	.
*	*	*	*Xtremolo	*	*Xtremolo	*	*	*	*	*	*	*	*	*	*	*	*	*	*
8C#/	.	.	(16aa\LL	.	(16aa\LL	.	8C#/	-e	8e\	-e	8a\	-e	.	8ee\	-e	.	8A/	8e\	.
.	.	.	16gg\)	.	16gg\)	.	.	.	.	.	.	.	.	.	.	.	.	.	.
!	!	!	!	!	!LO:TX:a:t=problem&colon;niejednoznaczny zapis artykulacji w tt. 50-54	!	!	!	!	!	!	!	!	!	!	!	!	!	!
8C#/J	.	.	(16ff#\	.	16ff#`\	.	8C#/	e-	8e\	e-	8a\	e-	.	8ee\	e-	.	8A/J	8e\J	.
.	.	.	16ee\JJ)	.	16ee`\JJ	.	.	.	.	.	.	.	.	.	.	.	.	.	.
=51	=51	=51	=51	=51	=51	=51	=51	=51	=51	=51	=51	=51	=51	=51	=51	=51	=51	=51	=51
8D/L	.	.	(16ee\LL	.	(16ee\LL	.	4D\	-lei-	4d\	-lei-	4a\	-lei-	.	4ff#\	-lei-	.	4d\	4f#\	.
.	.	.	16dd\)	.	16dd\)	.	.	.	.	.	.	.	.	.	.	.	.	.	.
8D/	.	.	16dd`\	.	16dd`\	.	.	.	.	.	.	.	.	.	.	.	.	.	.
.	.	.	16dd`\JJ	.	16dd`\JJ	.	.	.	.	.	.	.	.	.	.	.	.	.	.
8D/	.	.	(16dd\LL	.	(16dd\LL	.	4D\	-son	4d\	-son	4a\	-son	.	4ff#\	-son	.	4d\	4f#\	.
.	.	.	16ee\)	.	16ee\)	.	.	.	.	.	.	.	.	.	.	.	.	.	.
8D/J	.	.	16ff#`\	.	16ff#`\	.	.	.	.	.	.	.	.	.	.	.	.	.	.
.	.	.	16gg`\JJ	.	16gg'\JJ	.	.	.	.	.	.	.	.	.	.	.	.	.	.
*	*	*	*tremolo	*	*tremolo	*	*	*	*	*	*	*	*	*	*	*	*	*	*
8C#/L	.	.	16aa\LL	.	16aa'\LL	.	8C#/	{Ky-	8e\	Ky-	8a\	Ky-	.	8ee\	Ky-	.	8A/L	8e\L	.
.	.	.	16aa\	.	16aa'\	.	.	.	.	.	.	.	.	.	.	.	.	.	.
8C#/	.	.	16aa\	.	16aa'\	.	8C#/	-ri-	8e\	-ri-	8a\	-ri-	.	8ee\	-ri-	.	8A/	8e\	.
.	.	.	16aa\JJ	.	16aa'\JJ	.	.	.	.	.	.	.	.	.	.	.	.	.	.
*	*	*	*Xtremolo	*	*Xtremolo	*	*	*	*	*	*	*	*	*	*	*	*	*	*
8C#/	.	.	(16aa\LL	.	(16aa\LL	.	8C#/	-e	8e\	-e	8a\	-e	.	8ee\	-e	.	8A/	8e\	.
.	.	.	16gg\)	.	16gg\)	.	.	.	.	.	.	.	.	.	.	.	.	.	.
8C#/J	.	.	16ff#`\	.	16ff#`\	.	8C#/	e-	8e\	e-	8a\	e-	.	8ee\	e-	.	8A/J	8e\J	.
.	.	.	16ee`\JJ	.	16ee`\JJ	.	.	.	.	.	.	.	.	.	.	.	.	.	.
=52	=52	=52	=52	=52	=52	=52	=52	=52	=52	=52	=52	=52	=52	=52	=52	=52	=52	=52	=52
!	!	!	!	!	!	!	!	!	!	!	!LO:LB:g=original	!	!	!	!	!	!	!	!
8D\L	.	.	(16ee\LL	.	(16ee\LL	.	4D\	-lei-	4d\	-lei-	4a\	-lei-	.	4ff#\	-lei-	.	4d\	4f#\	.
.	.	.	16dd\)	.	16dd\)	.	.	.	.	.	.	.	.	.	.	.	.	.	.
8D\	.	.	16dd`\	.	16dd`\	.	.	.	.	.	.	.	.	.	.	.	.	.	.
.	.	.	16dd`\JJ	.	16dd`\JJ	.	.	.	.	.	.	.	.	.	.	.	.	.	.
8D\	.	.	8dd\	.	8dd\	.	4D\	-son}	4d\	-son	4a\	-son	.	4ff#\	-son	.	4d\	4f#\	.
8D\J	.	.	8r	.	8r	.	.	.	.	.	.	.	.	.	.	.	.	.	.
8F#\L	6	.	16dd\LL	.	16dd\LL	.	8F#\	{Ky-	8d\	Ky-	8a\	{Ky-	.	8dd\	Ky-	.	8d\L	8d\L	.
.	.	.	16ddd\	.	16ddd\	.	.	.	.	.	.	.	.	.	.	.	.	.	.
8F#\	.	.	16ddd\	.	16ddd\	.	8F#\	-ri-	8d\	-ri-	8a\	-ri-	.	8dd\	-ri-	.	8d\	8d\	.
.	.	.	16ddd\JJ	.	16ddd\JJ	.	.	.	.	.	.	.	.	.	.	.	.	.	.
!	!	!	!	!	!	!	!	!	!	!	!	!	!	!LO:LB:g=original	!	!	!	!	!
8F#\	.	.	16ddd\LL	.	16ddd\LL	.	8F#\	-e	8d\	-e	8a\	-e	.	8dd\	-e	.	8d\	8d\	.
.	.	.	16cccn\	.	16cccn\	.	.	.	.	.	.	.	.	.	.	.	.	.	.
8F#\J	.	.	16bb\	.	16bb\	.	8F#\	e-	8d\	e-	8a\	e-	.	8dd\	e-	.	8d\J	8d\J	.
.	.	.	16aa\JJ	.	16aa\JJ	.	.	.	.	.	.	.	.	.	.	.	.	.	.
=53	=53	=53	=53	=53	=53	=53	=53	=53	=53	=53	=53	=53	=53	=53	=53	=53	=53	=53	=53
!	!	!	!	!	!	!	!	!	!LO:LB:g=original	!	!	!	!	!	!	!	!	!	!
8G\L	.	.	(16aa\LL	.	(16aa\LL	.	4G\	-lei-	4d\	-lei-	4b\	-lei-	.	4dd\	-lei-	.	4d\	4d\	.
.	.	.	16gg\)	.	16gg\)	.	.	.	.	.	.	.	.	.	.	.	.	.	.
8G\	.	.	16gg`\	.	16gg`\	.	.	.	.	.	.	.	.	.	.	.	.	.	.
.	.	.	16gg`\JJ	.	16gg`\JJ	.	.	.	.	.	.	.	.	.	.	.	.	.	.
!	!	!	!	!	!LO:LB:g=original	!	!	!	!	!	!	!	!	!	!	!	!	!	!
8G\	.	.	(16gg\LL	.	(16gg\LL	.	4G\	-son}	4d\	-son	4b\	-son}	.	4dd\	-son	.	4d\	4d\	.
.	.	.	16ff#\)	.	16ff#\)	.	.	.	.	.	.	.	.	.	.	.	.	.	.
8G\J	.	.	16gg\	.	16gg`\	.	.	.	.	.	.	.	.	.	.	.	.	.	.
.	.	.	16aa\JJ	.	16aa`\JJ	.	.	.	.	.	.	.	.	.	.	.	.	.	.
!	!	!	!	!	!LO:TX:a:t=problem&colon;mixed beam	!	!	!	!	!	!	!	!	!	!	!	!	!	!
*	*	*	*tremolo	*	*	*	*	*	*	*	*	*	*	*	*	*	*	*	*
8D#X\L	6	.	16bb\LL	.	(16bb\LL	.	8D#X\	Ky-	8f#\	Ky-	8b\	{Ky-	.	8ff#\	Ky-	.	2r	2r	.
.	.	.	16bb\	.	16b/)	.	.	.	.	.	.	.	.	.	.	.	.	.	.
8D#\	.	.	16bb\	.	16bb`\	.	8D#\	-ri-	8d#X\	-ri-	8b\	-ri-	.	8ff#\	-ri-	.	.	.	.
.	.	.	16bb\JJ	.	16bb`\JJ	.	.	.	.	.	.	.	.	.	.	.	.	.	.
*	*	*	*Xtremolo	*	*	*	*	*	*	*	*	*	*	*	*	*	*	*	*
8D#\	.	.	(16bb\LL	.	(16bb\LL	.	8D#\	-e	8d#\	-e	8b\	-e	.	8ff#\	-e	.	.	.	.
.	.	.	16aa\)	.	16aa\)	.	.	.	.	.	.	.	.	.	.	.	.	.	.
8D#\J	.	.	16gg`\	.	16gg`\	.	8D#\	e-	8f#\	e-	8b\	e-	.	8ff#\	e-	.	.	.	.
.	.	.	16ff#`\JJ	.	16ff#`\JJ	.	.	.	.	.	.	.	.	.	.	.	.	.	.
=54	=54	=54	=54	=54	=54	=54	=54	=54	=54	=54	=54	=54	=54	=54	=54	=54	=54	=54	=54
!	!	!	!LO:LB:g=original	!	!	!	!LO:LB:g=original	!	!	!	!	!	!	!	!	!	!LO:TX:a:t=problem&colon;pauzy 00r 1r adnotacja "5"	!LO:TX:a:t=problem&colon;pauzy 00r 1r adnotacja "5"	!
8E\L	.	.	(16ff#\LL	.	(16ff#\LL	.	4E\	-lei-	4e\	-lei-	4b\	-lei-	.	4ee\	-lei-	.	1r	1r	.
.	.	.	16ee\)	.	16ee\)	.	.	.	.	.	.	.	.	.	.	.	.	.	.
8E\	.	.	16ee`\	.	16ee`\	.	.	.	.	.	.	.	.	.	.	.	.	.	.
.	.	.	16ee`\JJ	.	16ee`\JJ	.	.	.	.	.	.	.	.	.	.	.	.	.	.
8E\	.	.	16ee\LL	.	(16ee\LL	.	8E\	-son	8e\	-son	8b\	-son}	.	8ee\	-son	.	.	.	.
.	.	.	16ff#\	.	16ff#\)	.	.	.	.	.	.	.	.	.	.	.	.	.	.
8E\J	.	.	16gg\	.	16gg`\	.	8E\	e-	8e\	e-	8b\	e-	.	8ee\	e-	.	.	.	.
.	.	.	16aa\JJ	.	16aa`\JJ	.	.	.	.	.	.	.	.	.	.	.	.	.	.
4G\	6	.	16bb\LL	.	(16bb\LL	.	4.G\	-lei-	2e\	-lei-	2b\	-lei-	.	(4.ee\	-lei-	.	.	.	.
!	!	!	!LO:TX:a:t=SIC&colon;s=16aa	!	!	!	!	!	!	!	!	!	!	!	!	!	!	!	!
.	.	.	16gg\	.	16aa\)	.	.	.	.	.	.	.	.	.	.	.	.	.	.
!	!	!	!LO:TX:a:t=SIC&colon;s=16aa	!	!	!	!	!	!	!	!	!	!	!	!	!	!	!	!
.	.	.	16gg\	.	(16aa\	.	.	.	.	.	.	.	.	.	.	.	.	.	.
.	.	.	16ff#\JJ	.	16ff#\JJ)	.	.	.	.	.	.	.	.	.	.	.	.	.	.
8r	.	.	16gg\LL	.	(16gg\LL	.	.	.	.	.	.	.	.	.	.	.	.	.	.
.	.	.	16ee\	.	16ee\)	.	.	.	.	.	.	.	.	.	.	.	.	.	.
8G#X\	5	.	(16ee\	.	(16ee\	.	8G#X\	.	.	.	.	.	.	8dd\)	.	.	.	.	.
.	.	.	16dd\JJ)	.	16dd\JJ)	.	.	.	.	.	.	.	.	.	.	.	.	.	.
=55	=55	=55	=55	=55	=55	=55	=55	=55	=55	=55	=55	=55	=55	=55	=55	=55	=55	=55	=55
!LO:TX:a:t=problem:mixed beam	!	!	!	!	!	!	!	!	!	!	!	!	!	!	!	!	!	!	!
.	.	.	.	.	.	.	.	.	.	.	.	.	.	8qqdd/	.	.	.	.	.
8A\L	4	.	8dd\L	.	(8dd\L	.	4A\	-son	4e\	-son	4a\	-son	.	4cc#\	-son	.	1r	1r	.
.	3	.	.	.	.	.	.	.	.	.	.	.	.	.	.	.	.	.	.
8AA/J	.	.	8cc#\J	.	8cc#\J)	.	.	.	.	.	.	.	.	.	.	.	.	.	.
4r	.	.	8r	.	8r	.	4r	.	4r	.	8r	.	.	8r	.	.	.	.	.
!	!	!	!	!	!	!	!	!	!	!	!	!	!	!LO:TX:a:t=Solo	!	!	!	!	!
.	.	.	8e/	p	8cc#\	p	.	.	.	.	8e\	e-	.	8cc#\	e-	.	.	.	.
!	!	!LO:HP:t=pia	!	!	!	!	!	!	!	!	!	!	!	!	!	!	!	!	!
!LO:TX:a:i:t=senza voce	!	!	!	!	!	!	!	!	!	!	!	!	!	!	!	!	!	!	!
8A\L	.	p	4e/	.	4.cc#\	.	2r	.	2r	.	4.e\	-lei-	.	4.cc#\	-lei-	.	.	.	.
8A\	.	.	.	.	.	.	.	.	.	.	.	.	.	.	.	.	.	.	.
8A\	.	.	8f#/L	.	.	.	.	.	.	.	.	.	.	.	.	.	.	.	.
!	!	!	!	!	!	!	!	!	!	!	!	!	!	!	!	!LO:HP:t=for	!	!	!
!	!	!	!	!	!	!	!	!	!	!	!	!	!	!	!	!LO:DY:a	!	!	!
8A\J	.	.	8e/J	.	16dd\LL	.	.	.	.	.	16f#\LL	.	.	16dd\LL	.	f	.	.	.
.	.	.	.	.	16b\JJ	.	.	.	.	.	16d\JJ	.	.	16b\JJ	.	.	.	.	.
=56	=56	=56	=56	=56	=56	=56	=56	=56	=56	=56	=56	=56	=56	=56	=56	=56	=56	=56	=56
!	!	!	!	!	!	!	!LO:TX:a:t=problem&colon;pauzy 00r adnotacja "4"	!	!LO:TX:a:t=problem&colon;pauzy 00r adnotacja "4"	!	!	!	!	!	!	!	!	!	!
.	.	.	.	.	8qqb/	.	.	.	.	.	8qqe/	.	.	8qqb/	.	.	.	.	.
8A\L	.	.	4c#/	.	4a/	.	1r	.	1r	.	4d\	-son	.	4a\	-son	.	1r	1r	.
8A\	.	.	.	.	.	.	.	.	.	.	.	.	.	.	.	.	.	.	.
8A\	.	.	8r	.	8r	.	.	.	.	.	8r	.	.	8r	.	.	.	.	.
8A\J	.	.	8g/	.	8ee\	.	.	.	.	.	8g\	e-	.	8ee\	e-	.	.	.	.
8A\L	.	.	(8g/L	.	(8ee\L	.	.	.	.	.	(8g\L	-lei-	.	(8ee\L	-lei-	.	.	.	.
8A\	.	.	8f#/)	.	8dd\)	.	.	.	.	.	8f#\)	.	.	8dd\)	.	.	.	.	.
8A\	.	.	(8f#/	.	(8dd\	.	.	.	.	.	(8f#\	.	.	(8dd\	.	.	.	.	.
8A\J	.	.	8e/J)	.	8cc#\J)	.	.	.	.	.	8e\J)	.	.	8cc#\J)	.	.	.	.	.
=57	=57	=57	=57	=57	=57	=57	=57	=57	=57	=57	=57	=57	=57	=57	=57	=57	=57	=57	=57
8A\L	.	.	(8e/L	.	8cc#\L	.	1r	.	1r	.	8e\L	.	.	8cc#\L	.	.	1r	1r	.
8A\	.	.	8f#/J)	.	8dd\J	.	.	.	.	.	8f#\J	.	.	8dd\J	.	.	.	.	.
8A\	.	.	8r	.	8r	.	.	.	.	.	8r	.	.	8r	.	.	.	.	.
8A\J	.	.	8a/	.	8ff#\	.	.	.	.	.	8a\	.	.	8ff#\	.	.	.	.	.
8A\L	.	.	8a/L	.	(8ff#\L	.	.	.	.	.	8a\L	.	.	8ff#\L	.	.	.	.	.
8A\	.	.	8g/	.	8ee\)	.	.	.	.	.	8g\	.	.	8ee\	.	.	.	.	.
8A\	.	.	8g/	.	(8ee\	.	.	.	.	.	8g\	.	.	8ee\	.	.	.	.	.
8A\J	.	.	8f#/J	.	8dd#X\J)	.	.	.	.	.	8f#\J	.	.	8dd#X\J	.	.	.	.	.
=58	=58	=58	=58	=58	=58	=58	=58	=58	=58	=58	=58	=58	=58	=58	=58	=58	=58	=58	=58
!	!	!	!	!	!LO:LB:g=original	!	!	!	!	!	!	!	!	!	!	!	!	!	!
!	!	!	!	!	!LO:TX:a:t=SIC&colon;s=8dd#	!	!	!	!	!	!	!	!	!LO:TX:a:t=SIC&colon;s=8dd#	!	!	!	!	!
8A\L	.	.	8f#/L	.	8dd\L	.	1r	.	1r	.	8f#\L	.	.	8dd\L	.	.	1r	1r	.
.	.	.	.	.	16qqgg/	.	.	.	.	.	.	.	.	.	.	.	.	.	.
8A\	.	.	8g/J	.	8ee\J	.	.	.	.	.	8g\J	.	.	8ee\J	.	.	.	.	.
8A\	.	.	8r	.	8r	.	.	.	.	.	8r	.	.	8r	.	.	.	.	.
!	!	!	!LO:N:vis=8	!	!	!	!	!	!	!	!	!	!	!	!	!	!	!	!
!	!	!	!	!	!	!	!	!	!	!	!LO:LB:g=original	!	!	!	!	!	!	!	!
8A\J	.	.	16b/LL	.	16gg\LL	.	.	.	.	.	16b\LL	.	.	16gg\LL	.	.	.	.	.
!	!	!	!LO:N:vis=8	!	!	!	!	!	!	!	!	!	!	!	!	!	!	!	!
.	.	.	16g/JJ	.	16ee\JJ	.	.	.	.	.	16g\JJ	.	.	16ee\JJ	.	.	.	.	.
8A\L	.	.	8g/L	.	(8ee\L	.	.	.	.	.	8g\L	.	.	8ee\L	.	.	.	.	.
8A\	.	.	8f#/	.	8ddn\)	.	.	.	.	.	8f#\	.	.	8dd\	.	.	.	.	.
8A\	.	.	8f#/	.	(8dd\	.	.	.	.	.	8f#\	.	.	8dd\	.	.	.	.	.
8A\J	.	.	8e/J	.	8cc#\J)	.	.	.	.	.	8e\J	.	.	8cc#\J	.	.	.	.	.
=59	=59	=59	=59	=59	=59	=59	=59	=59	=59	=59	=59	=59	=59	=59	=59	=59	=59	=59	=59
*Xtremolo	*	*	*	*	*	*	*	*	*	*	*	*	*	*	*	*	*	*	*
8A\L	.	.	8e/	.	8cc#\	.	1r	.	1r	.	8e\	.	.	8cc#\	.	.	2r	2r	.
8A\	.	.	4f#/	.	4dd\	.	.	.	.	.	4f#\	.	.	4dd\	.	.	.	.	.
8G#X\	.	.	.	.	.	.	.	.	.	.	.	.	.	.	.	.	.	.	.
8G#\J	.	.	8d/	.	8f#/	.	.	.	.	.	8d\	.	.	8f#/	.	.	.	.	.
.	.	.	8qqd/	.	4qqf#/	.	.	.	.	.	8qqd/	.	.	8qqf#/	.	.	.	.	.
4A\	.	.	4c#/	.	4e/	.	.	.	.	.	4c#\	-son	.	4e/	-son	.	4r	4r	.
4r	.	.	8r	.	8r	.	.	.	.	.	4r	.	.	4r	.	.	8r	8r	.
.	.	.	8A/	.	8a/	.	.	.	.	.	.	.	.	.	.	.	8A/	8A/	.
=60	=60	=60	=60	=60	=60	=60	=60	=60	=60	=60	=60	=60	=60	=60	=60	=60	=60	=60	=60
!LO:LB:g=original	!	!	!LO:LB:g=original	!	!	!	!	!	!	!	!	!	!	!LO:LB:g=original	!	!	!LO:N:vis=16	!LO:N:vis=16	!LO:HP:t=for
!	!	!	!	!LO:HP:t=for	!	!LO:HP:t=for	!	!	!	!	!	!	!	!LO:TX:a:t=Tutti	!	!	!	!	!
4r	.	.	8d/L	f	8d/L 8dd	f	4r	.	4r	.	4r	.	.	4r	.	.	8D/L	8d\L	f
.	.	.	16.d/L	.	16.dd/L	.	.	.	.	.	.	.	.	.	.	.	16.D/L	16.d\L	.
.	.	.	32d/JJk	.	32dd/JJk	.	.	.	.	.	.	.	.	.	.	.	32D/JJk	32d\JJk	.
8r	.	.	8d/L	.	8dd\L	.	8r	.	8r	.	8r	.	.	8r	.	.	8D/	8d\	.
!	!	!LO:HP:t=for	!	!	!	!	!	!	!	!	!	!	!	!	!	!	!	!	!
8F#\	6	f	8d/J	.	8dd\J	.	8F#\	e-	8d\	e-	8d\	e-	.	8dd\	E-	.	8r	8r	.
8G\L	6	.	8e/L	.	8ee'\L	.	(8G\L	-lei-	4d\	-lei-	4d\	-lei-	.	(8ee\L	-lei-	.	2r	2r	.
8A\	6	.	8f#/	.	8ff#'\	.	8A\J)	.	.	.	.	.	.	8ff#\J)	.	.	.	.	.
8B\	6	.	8g/	.	8gg'\	.	8B\	-son	8d\	-son	8d\	-son	.	8gg\	-son	.	.	.	.
8A\J	6	.	8e/J	.	8ee'\J	.	8A\	e-	8d\	e-	8d\	e-	.	8ff#\	e-	.	.	.	.
=61	=61	=61	=61	=61	=61	=61	=61	=61	=61	=61	=61	=61	=61	=61	=61	=61	=61	=61	=61
!	!	!	!	!	!	!	!	!	!	!	!	!	!	!	!	!	!	!LO:LB:g=original	!
8G\L	6 4	.	8e/L	.	8ee\L	.	8G\	-lei-	8d\	-lei-	8a\	-lei-	.	8ee\	-lei-	.	8r	8r	.
!	!	!	!	!	!	!	!	!	!	!	!	!	!	!	!	!	!	!	!LO:HP:t=fo
8F#\J	6	.	16.d/L	.	16.dd\L	.	8F#\	-son	8d\	-son	8a\	-son	.	8dd\	-son	.	16.D/LL	16.d\LL	f
.	.	.	32d/JJk	.	32dd\JJk	.	.	.	.	.	.	.	.	.	.	.	32D/JJk	32d\JJk	.
8r	.	.	8d/L	.	8dd\L	.	8r	.	8r	.	8r	.	.	8r	.	.	8D/	8d\	.
8F#\	6	.	8d/J	.	8dd\J	.	8F#\	{e-	8d\	e-	8d\	e-	.	8dd\	e-	.	8r	8r	.
8G\L	6	.	8e/L	.	8ee'\L	.	8G\L	-lei-	4d\	-lei-	4d\	-lei-	.	(8ee\L	-lei-	.	2r	2r	.
8A\	6	.	8f#/	.	8ff#'\	.	8A\J	.	.	.	.	.	.	8ff#\J)	.	.	.	.	.
8B\	6	.	8g/	.	8gg'\	.	8B\	-son	8d\	-son	8d\	-son	.	8gg\	-son	.	.	.	.
8A\J	6	.	8e/J	.	8ee'\J	.	8A\	e-	8d\	e-	8d\	e-	.	8ff#\	e-	.	.	.	.
=62	=62	=62	=62	=62	=62	=62	=62	=62	=62	=62	=62	=62	=62	=62	=62	=62	=62	=62	=62
8G\L	6 4	.	8e/L	.	8ee\L	.	8G\	-lei-	8d\	-lei-	8a\	-lei-	.	8ee\	-lei-	.	8r	8r	.
!	!	!	!	!	!	!	!	!	!	!	!	!	!	!	!	!	!	!	!LO:HP:t=for
8F#\J	6	.	16.d/L	.	16.dd\L	.	8F#\	-son}	8d\	-son	8a\	-son	.	8dd\	-son	.	16.D/LL	16.d\LL	f
.	.	.	32d/JJk	.	32dd\JJk	.	.	.	.	.	.	.	.	.	.	.	32D/JJk	32d\JJk	.
4r	.	.	8d/L	.	8dd\L	.	4r	.	4r	.	4r	.	.	4r	.	.	8D/	8d\	.
.	.	.	8d/J	.	8dd\J	.	.	.	.	.	.	.	.	.	.	.	8r	8r	.
*tremolo	*	*	*	*	*	*	*	*	*	*	*	*	*	*	*	*	*	*	*
8B\L	6|	.	8gg#X\L	.	8dd\L 8ddd	.	8B\	Ky-	8e\	Ky-	8g#X\	Ky-	.	8dd\	Ky-	.	2d\	2g#X\	.
8B\	.	.	16.gg#\L	.	16.ddd\L	.	8B\	-ri-	8e\	-ri-	8g#\	-ri-	.	8dd\	-ri-	.	.	.	.
.	.	.	32gg#\JJk	.	32ddd\JJk	.	.	.	.	.	.	.	.	.	.	.	.	.	.
8B\	.	.	8gg#\L	.	8ddd\L	.	8B\	-e	8e\	-e	8g#\	-e	.	8dd\	-e	.	.	.	.
8B\J	.	.	8gg#\J	.	8ddd\J	.	8B\	e-	8e\	e-	8g#\	e-	.	8dd\	e-	.	.	.	.
=63	=63	=63	=63	=63	=63	=63	=63	=63	=63	=63	=63	=63	=63	=63	=63	=63	=63	=63	=63
!	!	!	!	!	!LO:LB:g=original	!	!	!	!LO:LB:g=original	!	!	!	!	!	!	!	!LO:LB:g=original	!	!
4A\	.	.	16bb\LL	.	16ddd\LL	.	4A\	-lei-	4e\	-lei-	4a\	-lei-	.	4cc#\	-lei-	.	4e\	4a\	.
.	.	.	16aa\	.	16ccc#\	.	.	.	.	.	.	.	.	.	.	.	.	.	.
!	!	!	!LO:TX:a:t=SIC&colon;s=16gg#	!	!	!	!	!	!	!	!	!	!	!	!	!	!	!	!
.	.	.	16gg\	.	16bb\	.	.	.	.	.	.	.	.	.	.	.	.	.	.
.	.	.	16aa\JJ	.	16aa\JJ	.	.	.	.	.	.	.	.	.	.	.	.	.	.
!	!	!	!LO:TX:a:t=SIC&colon;s=16gg#	!	!	!	!	!	!	!	!	!	!	!	!	!	!	!	!
4r	.	.	16gg\LL	.	16gg#X\LL	.	4A\	-son	4e\	-son	4a\	-son	.	4cc#\	-son	.	4r	4r	.
.	.	.	16aa\	.	16aa\	.	.	.	.	.	.	.	.	.	.	.	.	.	.
!	!	!	!LO:TX:a:t=SIC&colon;s=16gg#	!	!	!	!	!	!	!	!	!	!	!	!	!	!	!	!
.	.	.	16gg\	.	16gg#\	.	.	.	.	.	.	.	.	.	.	.	.	.	.
.	.	.	16aa\JJ	.	16aa\JJ	.	.	.	.	.	.	.	.	.	.	.	.	.	.
8c#\L	6 5	.	8a\L 8ee	.	8a\L 8ggn	.	8c#\	Ky-	8A\	Ky-	8gn\	Ky-	.	8ee\	Ky-	.	2e\	2gn\	.
8c#\	.	.	16.ee\L	.	16.gg\L	.	8c#\	-ri-	8A\	-ri-	8g\	-ri-	.	8ee\	-ri-	.	.	.	.
.	.	.	32ee\JJk	.	32gg\JJk	.	.	.	.	.	.	.	.	.	.	.	.	.	.
8c#\	.	.	8ee\L	.	8gg\L	.	8c#\	-e	8A\	-e	8g\	-e	.	8ee\	-e	.	.	.	.
8c#\J	.	.	8ee\J	.	8gg\J	.	8c#\	e-	8A\	e-	8g\	e-	.	8ee\	e-	.	.	.	.
=64	=64	=64	=64	=64	=64	=64	=64	=64	=64	=64	=64	=64	=64	=64	=64	=64	=64	=64	=64
!	!	!	!	!	!	!	!LO:LB:g=original	!	!	!	!LO:LB:g=original	!	!	!	!	!	!	!	!
*Xtremolo	*	*	*tremolo	*	*	*	*	*	*	*	*	*	*	*	*	*	*	*	*
8d\L	.	.	16dd\LL	.	16a\LL 16ff#	.	8d\L	-lei-	1A	-lei-	4f#\	-lei-	.	(4dd\	-lei-	.	4d\	4f#\	.
.	.	.	16dd\	.	16a\ 16ff#	.	.	.	.	.	.	.	.	.	.	.	.	.	.
8A\	.	.	16dd\	.	16a\ 16ff#	.	8A\	.	.	.	.	.	.	.	.	.	.	.	.
.	.	.	16dd\JJ	.	16a\JJ 16ff#	.	.	.	.	.	.	.	.	.	.	.	.	.	.
*	*	*	*	*	*tremolo	*	*	*	*	*	*	*	*	*	*	*	*	*	*
8c#\	.	.	16ee\LL	.	16a\LL 16gg	.	8c#\	.	.	.	4g\	.	.	4ee\)	.	.	4e\	4g\	.
.	.	.	16ee\	.	16a\ 16gg	.	.	.	.	.	.	.	.	.	.	.	.	.	.
8A\J	.	.	16ee\	.	16a\ 16gg	.	8A\J	.	.	.	.	.	.	.	.	.	.	.	.
.	.	.	16ee\JJ	.	16a\JJ 16gg	.	.	.	.	.	.	.	.	.	.	.	.	.	.
8d\L	.	.	16dd\LL	.	16a\LL 16ff#	.	8d\L	.	.	.	4f#\	.	.	4dd\	-son	.	4d\	4f#\	.
.	.	.	16dd\	.	16a\ 16ff#	.	.	.	.	.	.	.	.	.	.	.	.	.	.
8A\	.	.	16dd\	.	16a\ 16ff#	.	8A\	.	.	.	.	.	.	.	.	.	.	.	.
.	.	.	16dd\JJ	.	16a\JJ 16ff#	.	.	.	.	.	.	.	.	.	.	.	.	.	.
8c#\	.	.	16ee\LL	.	16a\LL 16gg	.	8c#\	.	.	.	4g\	.	.	4ee\	e-	.	4e\	4g\	.
.	.	.	16ee\	.	16a\ 16gg	.	.	.	.	.	.	.	.	.	.	.	.	.	.
8A\J	.	.	16ee\	.	16a\ 16gg	.	8A\J	.	.	.	.	.	.	.	.	.	.	.	.
.	.	.	16ee\JJ	.	16a\JJ 16gg	.	.	.	.	.	.	.	.	.	.	.	.	.	.
=65	=65	=65	=65	=65	=65	=65	=65	=65	=65	=65	=65	=65	=65	=65	=65	=65	=65	=65	=65
8d\L	.	.	16dd\LL	.	16a\LL 16ff#	.	8d\L	.	2A\	.	4f#\	.	.	(4dd\	-lei-	.	4d\	4f#\	.
.	.	.	16dd\	.	16a\ 16ff#	.	.	.	.	.	.	.	.	.	.	.	.	.	.
8A\	.	.	16dd\	.	16a\ 16ff#	.	8A\	.	.	.	.	.	.	.	.	.	.	.	.
.	.	.	16dd\JJ	.	16a\JJ 16ff#	.	.	.	.	.	.	.	.	.	.	.	.	.	.
8c#\	.	.	16ee\LL	.	16a\LL 16gg	.	8c#\	.	.	.	4g\	.	.	4ee\)	.	.	4e\	4g\	.
.	.	.	16ee\	.	16a\ 16gg	.	.	.	.	.	.	.	.	.	.	.	.	.	.
8A\J	.	.	16ee\	.	16a\ 16gg	.	8A\J	.	.	.	.	.	.	.	.	.	.	.	.
.	.	.	16ee\JJ	.	16a\JJ 16gg	.	.	.	.	.	.	.	.	.	.	.	.	.	.
8d\L	.	.	16dd\LL	.	16a\LL 16ff#	.	4d\	-son	4A\	-son	4f#\	-son	.	4dd\	-son	.	[2d\	4f#\	.
.	.	.	16dd\	.	16a\ 16ff#	.	.	.	.	.	.	.	.	.	.	.	.	.	.
8d\	.	.	16dd\	.	16a\ 16ff#	.	.	.	.	.	.	.	.	.	.	.	.	.	.
.	.	.	16dd\JJ	.	16a\JJ 16ff#	.	.	.	.	.	.	.	.	.	.	.	.	.	.
8B\	6	.	16dd\LL	.	16a\LL 16gg	.	4B\	e-	4d\	e-	4g\	e-	.	4ee\	e-	.	.	4g\	.
.	.	.	16dd\	.	16a\ 16gg	.	.	.	.	.	.	.	.	.	.	.	.	.	.
8B\J	.	.	16dd\	.	16a\ 16gg	.	.	.	.	.	.	.	.	.	.	.	.	.	.
.	.	.	16dd\JJ	.	16a\JJ 16gg	.	.	.	.	.	.	.	.	.	.	.	.	.	.
=66	=66	=66	=66	=66	=66	=66	=66	=66	=66	=66	=66	=66	=66	=66	=66	=66	=66	=66	=66
8F#\L	6	.	16dd\LL	.	16aa\LL	.	(4F#\	-lei-	4d\	-lei-	4a\	-lei-	.	1dd	-lei-	.	2d\]	4a\	.
.	.	.	16dd\	.	16aa\	.	.	.	.	.	.	.	.	.	.	.	.	.	.
8F#\	.	.	16dd\	.	16aa\	.	.	.	.	.	.	.	.	.	.	.	.	.	.
.	.	.	16dd\JJ	.	16aa\JJ	.	.	.	.	.	.	.	.	.	.	.	.	.	.
8G\	.	.	16dd\LL	.	16bb\LL	.	4G\)	.	4g\	.	4b\	.	.	.	.	.	.	4b\	.
.	.	.	16dd\	.	16bb\	.	.	.	.	.	.	.	.	.	.	.	.	.	.
8G\J	.	.	16dd\	.	16bb\	.	.	.	.	.	.	.	.	.	.	.	.	.	.
.	.	.	16dd\JJ	.	16bb\JJ	.	.	.	.	.	.	.	.	.	.	.	.	.	.
*tremolo	*	*	*	*	*Xtremolo	*	*	*	*	*	*	*	*	*	*	*	*	*	*
!	!	!	!LO:LBg=original	!	!	!	!	!	!	!	!	!	!	!	!	!	!	!	!
8A\L	6 4	.	16dd\LL 16ff#	.	16ff#\LL	.	2A\	.	2f#\	.	2a\	.	.	.	.	.	2d\	2f#\	.
.	.	.	16dd\ 16ff#	.	16ddd\	.	.	.	.	.	.	.	.	.	.	.	.	.	.
8A\	.	.	16dd\ 16ff#	.	16ff#\	.	.	.	.	.	.	.	.	.	.	.	.	.	.
.	.	.	16dd\JJ 16ff#	.	16ddd\JJ	.	.	.	.	.	.	.	.	.	.	.	.	.	.
8A\	.	.	16dd\LL 16ff#	.	16ff#\LL	.	.	.	.	.	.	.	.	.	.	.	.	.	.
.	.	.	16dd\ 16ff#	.	16ddd\	.	.	.	.	.	.	.	.	.	.	.	.	.	.
8A\J	.	.	16dd\ 16ff#	.	16ff#\	.	.	.	.	.	.	.	.	.	.	.	.	.	.
.	.	.	16dd\JJ 16ff#	.	16ddd\JJ	.	.	.	.	.	.	.	.	.	.	.	.	.	.
=67	=67	=67	=67	=67	=67	=67	=67	=67	=67	=67	=67	=67	=67	=67	=67	=67	=67	=67	=67
8AA/L	5 3	p	16cc#\LL 16ee	.	16ee\LL	.	2AA/	.	2e\	.	2a\	.	.	2cc#\	.	.	2A/	2e\	.
.	.	.	16cc#\ 16ee	.	16ccc#\	.	.	.	.	.	.	.	.	.	.	.	.	.	.
8AA/	.	.	16cc#\ 16ee	.	16ee\	.	.	.	.	.	.	.	.	.	.	.	.	.	.
.	.	.	16cc#\JJ 16ee	.	16ccc#\JJ	.	.	.	.	.	.	.	.	.	.	.	.	.	.
*	*	*	*	*	*	*	*	*	*	*	*	*	*	*	*	*	*	*	*
!	!	!	!	!	!LO:LB:g=original	!	!	!	!	!	!	!	!	!	!	!	!	!	!
8AA/	.	.	16cc#\LL 16ee	.	16ee\LL	.	.	.	.	.	.	.	.	.	.	.	.	.	.
.	.	.	16cc#\ 16ee	.	16ccc#\	.	.	.	.	.	.	.	.	.	.	.	.	.	.
8AA/J	.	.	16cc#\ 16ee	.	16ee\	.	.	.	.	.	.	.	.	.	.	.	.	.	.
.	.	.	16cc#\JJ 16ee	.	16ccc#\JJ	.	.	.	.	.	.	.	.	.	.	.	.	.	.
*	*	*	*Xtremolo	*	*	*	*	*	*	*	*	*	*	*	*	*	*	*	*
4D\	.	.	4dd\	.	4ddd\	.	4D\	-son	4f#\	-son	4a\	-son	.	4dd\	-son	.	4F#/	4d\	.
4r	.	.	8r	.	8r	.	4r	.	8r	.	4r	.	.	8r	.	.	4r	4r	.
.	.	.	8cc#\	p	8ee\	p	.	.	8c#\	e-	.	.	.	8ee\	E-	.	.	.	.
=68	=68	=68	=68	=68	=68	=68	=68	=68	=68	=68	=68	=68	=68	=68	=68	=68	=68	=68	=68
4r	.	.	8dd\L	.	8ff#\L	.	4r	.	8d\L	-lei-	4r	.	.	8ff#\L	-lei-	.	4r	4r	.
.	.	.	16ee\L	.	16gg\L	.	.	.	16e\L	.	.	.	.	(16gg\L	.	.	.	.	.
.	.	.	16cc#\JJ	.	16ee\JJ	.	.	.	16c#\JJ	.	.	.	.	16ee\JJ)	.	.	.	.	.
!	!	!	!LO:TX:a:t=problem:mixed beam	!	!	!	!	!	!	!	!	!	!	!	!	!	!	!	!
!	!	!	!	!LO:HP:t=for	!	!	!	!	!	!	!	!	!	!	!	!	!	!	!
8r	.	.	8dd\L	f	8ff#\L	.	8r	.	8d\	-son	8r	.	.	8ff#\	-son	.	8r	8r	.
!	!	!LO:HP:t=for	!	!	!	!	!	!	!	!	!	!	!	!	!	!	!LO:TX:a:t=problem&colon;mixed beam	!	!
8B\	.	f	8f#/J	.	8dd\J	.	8B\	e-	8d\	e-	8f#\	e-	.	8dd\	e-	.	8d\L	8f#\L	.
!	!	!	!	!	!	!LO:HP:t=for	!	!	!	!	!	!	!	!	!	!	!	!	!
8G\L	.	.	16g/LL	.	8ee\L	f	8G\L	-lei-	4e\	-lei-	8b\L	-lei-	.	(8ee\L	-lei-	.	8e\	8g\	.
.	.	.	16b/	.	.	.	.	.	.	.	.	.	.	.	.	.	.	.	.
8A\J	.	.	16e/	.	8cc#\	.	8A\J	.	.	.	8a\J	.	.	8cc#\J)	.	.	8c#/J	8e\J	.
.	.	.	16a/JJ	.	.	.	.	.	.	.	.	.	.	.	.	.	.	.	.
!LO:TX:a:t=problem&colon;brak zapisu	!	!	!	!	!	!	!	!	!	!	!	!	!	!	!	!	!	!	!
!	!	!	!	!	!	!	!	!	!	!	!	!	!	!LO:LB:g=original	!	!	!	!	!
4ryy	.	.	8f#/L	.	8dd\	.	4D\	-son	8f#\	-son	4a\	-son	.	8dd\	-son	.	4d\	4f#\	.
.	.	.	8cc#/J	.	8ee\J	.	.	.	8c#\	e-	.	.	.	8ee\	e-	.	.	.	.
=69	=69	=69	=69	=69	=69	=69	=69	=69	=69	=69	=69	=69	=69	=69	=69	=69	=69	=69	=69
!LO:LB:g=original	!	!	!	!	!	!	!	!	!	!	!	!	!	!	!	!	!	!LO:LB:g=original	!
4r	.	.	8dd\L	p	8ff#\L	p	4r	.	8d\L	-lei-	4r	.	.	8ff#\L	-lei-	.	4r	4r	.
.	.	.	16ee\L	.	16gg\L	.	.	.	16e\L	.	.	.	.	16gg\L	.	.	.	.	.
.	.	.	16cc#\JJ	.	16ee\JJ	.	.	.	16c#\JJ	.	.	.	.	16ee\JJ	.	.	.	.	.
8r	.	.	8dd\L	.	8ff#\L	.	8r	.	8d\	-son	8r	.	.	8ff#\	-son	.	8r	8r	.
!LO:N:vis=4	!	!	!	!	!	!	!	!	!	!	!	!	!	!	!	!	!LO:TX:a:t=problem&colon;mixed beam	!	!
8B\	5	.	8a\J	.	8dd\J	.	8B\	e-	8d\	e-	8f#\	e-	.	8dd\	E-	.	8d\L	8f#\L	.
!	!	!	!	!	!LO:HP:t=for	!	!	!	!	!	!	!	!	!	!	!	!	!	!
!	!	!	!	!LO:HP:t=for	!	!	!	!	!	!	!	!	!	!LO:TX:a:t=problem:niewyraźny zapis łuku	!	!	!	!	!
8G\L	6	.	8b/L	f	8ee\L	f	8G\L	-lei-	(8g\L	-lei-	8b\L	-lei-	.	8ee\L	-lei-	.	8e\	8g\	.
8A\J	7	.	8A/J 8e	.	8ccc#\J	.	8A\J	.	8e\J)	.	8a\J	.	.	(8cc#\J	.	.	8c#/J	8e\J	.
4D\	.	.	4A/ 4f#	.	4ddd\	.	4D\	-son	4f#\	-son	4a\	-son	.	4dd\)	-son	.	4d\	4f#\	.
==	==	==	==	==	==	==	==	==	==	==	==	==	==	==	==	==	==	==	==
*-	*-	*-	*-	*-	*-	*-	*-	*-	*-	*-	*-	*-	*-	*-	*-	*-	*-	*-	*-
!!!system-decoration: [(g1)][(g2)][([(g3)]g4)]
!!!ENC: Anna Matuszewska
!!!END: 2020-04-14
